GoPro MAX2 GP-Log to Rec.709 Technical 33.cube
LUT_3D_SIZE 33
0.00000 0.00000 0.00000
0.00393 -0.00044 0.00011
0.00867 -0.00097 0.00024
0.01439 -0.00161 0.00040
0.02129 -0.00238 0.00059
0.02961 -0.00331 0.00082
0.03963 -0.00443 0.00110
0.05173 -0.00579 0.00143
0.06631 -0.00742 0.00184
0.08390 -0.00939 0.00232
0.10511 -0.01176 0.00291
0.13068 -0.01462 0.00362
0.16088 -0.01800 0.00445
0.19299 -0.02159 0.00534
0.22758 -0.02546 0.00630
0.26490 -0.02964 0.00733
0.30523 -0.03415 0.00845
0.34888 -0.03903 0.00966
0.39615 -0.04432 0.01097
0.44738 -0.05005 0.01238
0.50296 -0.05627 0.01392
0.56326 -0.06302 0.01559
0.62873 -0.07034 0.01740
0.69984 -0.07830 0.01937
0.77709 -0.08694 0.02151
0.86103 -0.09633 0.02383
0.95226 -0.10654 0.02636
1.05143 -0.11763 0.02911
1.15925 -0.12970 0.03209
1.27648 -0.14281 0.03533
1.40395 -0.15707 0.03886
1.54259 -0.17258 0.04270
1.69336 -0.18945 0.04688
-0.00141 0.00353 -0.00157
0.00252 0.00309 -0.00147
0.00726 0.00256 -0.00133
0.01298 0.00192 -0.00118
0.01988 0.00115 -0.00098
0.02819 0.00022 -0.00075
0.03822 -0.00090 -0.00048
0.05032 -0.00225 -0.00014
0.06490 -0.00389 0.00026
0.08249 -0.00585 0.00075
0.10369 -0.00823 0.00134
0.12927 -0.01109 0.00204
0.15947 -0.01447 0.00288
0.19158 -0.01806 0.00377
0.22616 -0.02193 0.00473
0.26349 -0.02610 0.00576
0.30382 -0.03062 0.00688
0.34747 -0.03550 0.00808
0.39474 -0.04079 0.00939
0.44597 -0.04652 0.01081
0.50154 -0.05274 0.01235
0.56185 -0.05948 0.01402
0.62732 -0.06681 0.01583
0.69843 -0.07476 0.01780
0.77568 -0.08341 0.01994
0.85962 -0.09280 0.02226
0.95085 -0.10301 0.02479
1.05002 -0.11410 0.02753
1.15783 -0.12616 0.03052
1.27507 -0.13928 0.03376
1.40254 -0.15354 0.03729
1.54118 -0.16905 0.04113
1.69195 -0.18592 0.04530
-0.00311 0.00779 -0.00347
0.00082 0.00735 -0.00336
0.00556 0.00682 -0.00323
0.01128 0.00618 -0.00307
0.01818 0.00541 -0.00288
0.02649 0.00448 -0.00265
0.03652 0.00336 -0.00237
0.04862 0.00201 -0.00204
0.06320 0.00038 -0.00164
0.08079 -0.00159 -0.00115
0.10199 -0.00397 -0.00056
0.12757 -0.00683 0.00015
0.15777 -0.01021 0.00098
0.18988 -0.01380 0.00187
0.22446 -0.01767 0.00283
0.26179 -0.02184 0.00386
0.30212 -0.02636 0.00498
0.34577 -0.03124 0.00619
0.39304 -0.03653 0.00749
0.44427 -0.04226 0.00891
0.49984 -0.04848 0.01045
0.56015 -0.05522 0.01212
0.62562 -0.06255 0.01393
0.69673 -0.07050 0.01590
0.77397 -0.07915 0.01804
0.85791 -0.08854 0.02036
0.94914 -0.09874 0.02289
1.04832 -0.10984 0.02563
1.15613 -0.12190 0.02862
1.27336 -0.13502 0.03186
1.40084 -0.14928 0.03539
1.53948 -0.16479 0.03923
1.69025 -0.18166 0.04340
-0.00516 0.01293 -0.00576
-0.00123 0.01249 -0.00565
0.00351 0.01196 -0.00552
0.00923 0.01132 -0.00536
0.01613 0.01055 -0.00517
0.02444 0.00962 -0.00494
0.03447 0.00850 -0.00466
0.04656 0.00715 -0.00433
0.06115 0.00551 -0.00393
0.07873 0.00355 -0.00344
0.09994 0.00117 -0.00285
0.12552 -0.00169 -0.00214
0.15572 -0.00507 -0.00131
0.18783 -0.00866 -0.00042
0.22241 -0.01253 0.00054
0.25974 -0.01670 0.00157
0.30007 -0.02122 0.00269
0.34372 -0.02610 0.00390
0.39098 -0.03139 0.00521
0.44222 -0.03712 0.00662
0.49779 -0.04334 0.00816
0.55810 -0.05009 0.00983
0.62357 -0.05741 0.01164
0.69468 -0.06537 0.01361
0.77192 -0.07401 0.01575
0.85586 -0.08340 0.01807
0.94709 -0.09361 0.02060
1.04626 -0.10470 0.02334
1.15408 -0.11676 0.02633
1.27131 -0.12988 0.02957
1.39879 -0.14414 0.03310
1.53742 -0.15965 0.03694
1.68820 -0.17652 0.04111
-0.00764 0.01913 -0.00852
-0.00370 0.01869 -0.00841
0.00104 0.01816 -0.00828
0.00676 0.01752 -0.00812
0.01365 0.01675 -0.00793
0.02197 0.01582 -0.00770
0.03200 0.01469 -0.00742
0.04409 0.01334 -0.00709
0.05867 0.01171 -0.00669
0.07626 0.00974 -0.00620
0.09747 0.00737 -0.00561
0.12304 0.00451 -0.00490
0.15324 0.00113 -0.00407
0.18535 -0.00246 -0.00318
0.21994 -0.00633 -0.00222
0.25726 -0.01051 -0.00119
0.29760 -0.01502 -0.00007
0.34124 -0.01990 0.00114
0.38851 -0.02519 0.00245
0.43975 -0.03092 0.00386
0.49532 -0.03714 0.00540
0.55562 -0.04389 0.00707
0.62110 -0.05121 0.00888
0.69220 -0.05917 0.01085
0.76945 -0.06781 0.01299
0.85339 -0.07720 0.01531
0.94462 -0.08741 0.01784
1.04379 -0.09851 0.02058
1.15161 -0.11057 0.02357
1.26884 -0.12368 0.02681
1.39632 -0.13795 0.03034
1.53495 -0.15346 0.03418
1.68572 -0.17032 0.03835
-0.01062 0.02660 -0.01185
-0.00669 0.02616 -0.01174
-0.00195 0.02563 -0.01161
0.00377 0.02499 -0.01145
0.01067 0.02422 -0.01126
0.01899 0.02329 -0.01103
0.02901 0.02217 -0.01075
0.04111 0.02081 -0.01042
0.05569 0.01918 -0.01001
0.07328 0.01721 -0.00953
0.09449 0.01484 -0.00894
0.12006 0.01198 -0.00823
0.15026 0.00860 -0.00740
0.18237 0.00501 -0.00651
0.21696 0.00114 -0.00555
0.25428 -0.00304 -0.00452
0.29461 -0.00755 -0.00340
0.33826 -0.01243 -0.00219
0.38553 -0.01772 -0.00088
0.43676 -0.02345 0.00054
0.49234 -0.02967 0.00207
0.55264 -0.03642 0.00374
0.61811 -0.04374 0.00556
0.68922 -0.05170 0.00752
0.76647 -0.06034 0.00966
0.85041 -0.06973 0.01199
0.94164 -0.07994 0.01451
1.04081 -0.09103 0.01726
1.14863 -0.10310 0.02024
1.26586 -0.11621 0.02349
1.39333 -0.13047 0.02701
1.53197 -0.14598 0.03085
1.68274 -0.16285 0.03503
-0.01422 0.03561 -0.01586
-0.01028 0.03517 -0.01575
-0.00554 0.03464 -0.01562
0.00018 0.03400 -0.01546
0.00707 0.03323 -0.01527
0.01539 0.03230 -0.01504
0.02542 0.03118 -0.01477
0.03751 0.02982 -0.01443
0.05209 0.02819 -0.01403
0.06968 0.02622 -0.01354
0.09089 0.02385 -0.01295
0.11646 0.02099 -0.01225
0.14666 0.01761 -0.01141
0.17877 0.01402 -0.01052
0.21336 0.01015 -0.00956
0.25068 0.00597 -0.00853
0.29102 0.00146 -0.00741
0.33466 -0.00342 -0.00621
0.38193 -0.00871 -0.00490
0.43317 -0.01444 -0.00348
0.48874 -0.02066 -0.00194
0.54904 -0.02741 -0.00027
0.61452 -0.03473 0.00154
0.68562 -0.04269 0.00351
0.76287 -0.05133 0.00565
0.84681 -0.06072 0.00797
0.93804 -0.07093 0.01050
1.03721 -0.08202 0.01324
1.14503 -0.09409 0.01623
1.26226 -0.10720 0.01947
1.38974 -0.12146 0.02300
1.52837 -0.13697 0.02684
1.67914 -0.15384 0.03101
-0.01856 0.04648 -0.02070
-0.01462 0.04604 -0.02059
-0.00988 0.04551 -0.02046
-0.00416 0.04487 -0.02030
0.00273 0.04410 -0.02011
0.01105 0.04316 -0.01988
0.02108 0.04204 -0.01961
0.03317 0.04069 -0.01927
0.04776 0.03906 -0.01887
0.06534 0.03709 -0.01838
0.08655 0.03472 -0.01779
0.11212 0.03186 -0.01709
0.14233 0.02848 -0.01625
0.17443 0.02489 -0.01536
0.20902 0.02102 -0.01440
0.24634 0.01684 -0.01337
0.28668 0.01233 -0.01225
0.33032 0.00744 -0.01105
0.37759 0.00216 -0.00974
0.42883 -0.00358 -0.00832
0.48440 -0.00979 -0.00678
0.54471 -0.01654 -0.00511
0.61018 -0.02387 -0.00330
0.68128 -0.03182 -0.00133
0.75853 -0.04046 0.00081
0.84247 -0.04985 0.00313
0.93370 -0.06006 0.00566
1.03287 -0.07116 0.00840
1.14069 -0.08322 0.01139
1.25792 -0.09634 0.01463
1.38540 -0.11060 0.01816
1.52403 -0.12611 0.02200
1.67480 -0.14298 0.02617
-0.02379 0.05958 -0.02654
-0.01985 0.05914 -0.02643
-0.01511 0.05861 -0.02630
-0.00939 0.05797 -0.02614
-0.00250 0.05720 -0.02595
0.00582 0.05627 -0.02572
0.01585 0.05515 -0.02544
0.02794 0.05379 -0.02511
0.04252 0.05216 -0.02470
0.06011 0.05019 -0.02422
0.08132 0.04782 -0.02363
0.10689 0.04496 -0.02292
0.13709 0.04158 -0.02209
0.16920 0.03799 -0.02120
0.20379 0.03412 -0.02024
0.24111 0.02994 -0.01921
0.28145 0.02543 -0.01809
0.32509 0.02055 -0.01688
0.37236 0.01526 -0.01557
0.42360 0.00953 -0.01416
0.47917 0.00331 -0.01262
0.53947 -0.00344 -0.01095
0.60495 -0.01076 -0.00914
0.67605 -0.01872 -0.00717
0.75330 -0.02736 -0.00503
0.83724 -0.03675 -0.00271
0.92847 -0.04696 -0.00018
1.02764 -0.05805 0.00257
1.13546 -0.07012 0.00555
1.25269 -0.08323 0.00880
1.38017 -0.09749 0.01232
1.51880 -0.11300 0.01616
1.66957 -0.12987 0.02034
-0.03009 0.07538 -0.03358
-0.02616 0.07494 -0.03347
-0.02142 0.07441 -0.03334
-0.01570 0.07377 -0.03318
-0.00881 0.07300 -0.03299
-0.00049 0.07207 -0.03276
0.00954 0.07095 -0.03248
0.02163 0.06959 -0.03215
0.03622 0.06796 -0.03174
0.05380 0.06600 -0.03126
0.07501 0.06362 -0.03067
0.10058 0.06076 -0.02996
0.13079 0.05738 -0.02912
0.16289 0.05379 -0.02824
0.19748 0.04992 -0.02728
0.23480 0.04575 -0.02625
0.27514 0.04123 -0.02513
0.31878 0.03635 -0.02392
0.36605 0.03106 -0.02261
0.41729 0.02533 -0.02119
0.47286 0.01911 -0.01966
0.53317 0.01236 -0.01799
0.59864 0.00504 -0.01617
0.66974 -0.00292 -0.01421
0.74699 -0.01156 -0.01207
0.83093 -0.02095 -0.00974
0.92216 -0.03116 -0.00722
1.02133 -0.04225 -0.00447
1.12915 -0.05431 -0.00149
1.24638 -0.06743 0.00176
1.37386 -0.08169 0.00529
1.51249 -0.09720 0.00912
1.66326 -0.11407 0.01330
-0.03770 0.09444 -0.04207
-0.03377 0.09400 -0.04196
-0.02903 0.09347 -0.04183
-0.02331 0.09283 -0.04167
-0.01641 0.09206 -0.04148
-0.00810 0.09112 -0.04125
0.00193 0.09000 -0.04097
0.01403 0.08865 -0.04063
0.02861 0.08702 -0.04023
0.04620 0.08505 -0.03974
0.06740 0.08268 -0.03916
0.09298 0.07982 -0.03845
0.12318 0.07644 -0.03761
0.15529 0.07285 -0.03672
0.18987 0.06898 -0.03577
0.22720 0.06480 -0.03473
0.26753 0.06029 -0.03362
0.31118 0.05540 -0.03241
0.35845 0.05012 -0.03110
0.40968 0.04438 -0.02968
0.46525 0.03817 -0.02814
0.52556 0.03142 -0.02647
0.59103 0.02409 -0.02466
0.66214 0.01614 -0.02269
0.73938 0.00750 -0.02056
0.82332 -0.00189 -0.01823
0.91455 -0.01210 -0.01571
1.01373 -0.02320 -0.01296
1.12154 -0.03526 -0.00998
1.23877 -0.04838 -0.00673
1.36625 -0.06264 -0.00320
1.50489 -0.07815 0.00064
1.65566 -0.09502 0.00481
-0.04688 0.11742 -0.05230
-0.04294 0.11698 -0.05219
-0.03820 0.11645 -0.05206
-0.03248 0.11581 -0.05190
-0.02559 0.11503 -0.05171
-0.01727 0.11410 -0.05148
-0.00724 0.11298 -0.05120
0.00485 0.11163 -0.05087
0.01944 0.11000 -0.05047
0.03702 0.10803 -0.04998
0.05823 0.10566 -0.04939
0.08380 0.10280 -0.04868
0.11400 0.09942 -0.04785
0.14611 0.09582 -0.04696
0.18070 0.09195 -0.04600
0.21802 0.08778 -0.04497
0.25836 0.08327 -0.04385
0.30200 0.07838 -0.04264
0.34927 0.07309 -0.04134
0.40051 0.06736 -0.03992
0.45608 0.06115 -0.03838
0.51639 0.05440 -0.03671
0.58186 0.04707 -0.03490
0.65296 0.03912 -0.03293
0.73021 0.03048 -0.03079
0.81415 0.02108 -0.02847
0.90538 0.01088 -0.02594
1.00455 -0.00022 -0.02320
1.11237 -0.01228 -0.02021
1.22960 -0.02540 -0.01697
1.35708 -0.03966 -0.01344
1.49571 -0.05517 -0.00960
1.64648 -0.07204 -0.00543
-0.05771 0.14455 -0.06439
-0.05378 0.14411 -0.06428
-0.04903 0.14358 -0.06415
-0.04332 0.14294 -0.06399
-0.03642 0.14217 -0.06380
-0.02810 0.14124 -0.06357
-0.01808 0.14012 -0.06329
-0.00598 0.13876 -0.06296
0.00860 0.13713 -0.06255
0.02619 0.13516 -0.06207
0.04740 0.13279 -0.06148
0.07297 0.12993 -0.06077
0.10317 0.12655 -0.05994
0.13528 0.12296 -0.05905
0.16987 0.11909 -0.05809
0.20719 0.11491 -0.05706
0.24753 0.11040 -0.05594
0.29117 0.10552 -0.05473
0.33844 0.10023 -0.05342
0.38967 0.09450 -0.05201
0.44525 0.08828 -0.05047
0.50555 0.08153 -0.04880
0.57102 0.07421 -0.04698
0.64213 0.06625 -0.04502
0.71938 0.05761 -0.04288
0.80332 0.04822 -0.04055
0.89455 0.03801 -0.03803
0.99372 0.02692 -0.03528
1.10154 0.01485 -0.03230
1.21877 0.00174 -0.02905
1.34625 -0.01252 -0.02553
1.48488 -0.02803 -0.02169
1.63565 -0.04490 -0.01751
-0.06923 0.17340 -0.07724
-0.06529 0.17296 -0.07713
-0.06055 0.17243 -0.07700
-0.05483 0.17179 -0.07684
-0.04794 0.17102 -0.07665
-0.03962 0.17009 -0.07642
-0.02959 0.16897 -0.07614
-0.01750 0.16761 -0.07581
-0.00292 0.16598 -0.07540
0.01467 0.16401 -0.07492
0.03588 0.16164 -0.07433
0.06145 0.15878 -0.07362
0.09165 0.15540 -0.07279
0.12376 0.15181 -0.07190
0.15835 0.14794 -0.07094
0.19567 0.14376 -0.06991
0.23601 0.13925 -0.06879
0.27965 0.13437 -0.06758
0.32692 0.12908 -0.06627
0.37816 0.12335 -0.06486
0.43373 0.11713 -0.06332
0.49403 0.11038 -0.06165
0.55951 0.10306 -0.05984
0.63061 0.09510 -0.05787
0.70786 0.08646 -0.05573
0.79180 0.07707 -0.05341
0.88303 0.06686 -0.05088
0.98220 0.05577 -0.04813
1.09002 0.04370 -0.04515
1.20725 0.03059 -0.04191
1.33473 0.01633 -0.03838
1.47336 0.00082 -0.03454
1.62413 -0.01605 -0.03037
-0.08163 0.20448 -0.09108
-0.07770 0.20404 -0.09097
-0.07296 0.20351 -0.09084
-0.06724 0.20287 -0.09068
-0.06034 0.20209 -0.09049
-0.05203 0.20116 -0.09026
-0.04200 0.20004 -0.08999
-0.02991 0.19869 -0.08965
-0.01532 0.19706 -0.08925
0.00226 0.19509 -0.08876
0.02347 0.19272 -0.08817
0.04905 0.18986 -0.08747
0.07925 0.18648 -0.08663
0.11136 0.18288 -0.08574
0.14594 0.17902 -0.08478
0.18327 0.17484 -0.08375
0.22360 0.17033 -0.08263
0.26725 0.16544 -0.08143
0.31451 0.16016 -0.08012
0.36575 0.15442 -0.07870
0.42132 0.14821 -0.07716
0.48163 0.14146 -0.07549
0.54710 0.13413 -0.07368
0.61821 0.12618 -0.07171
0.69545 0.11754 -0.06957
0.77939 0.10814 -0.06725
0.87062 0.09794 -0.06472
0.96979 0.08684 -0.06198
1.07761 0.07478 -0.05899
1.19484 0.06166 -0.05575
1.32232 0.04740 -0.05222
1.46095 0.03189 -0.04838
1.61173 0.01502 -0.04421
-0.09502 0.23801 -0.10602
-0.09109 0.23757 -0.10591
-0.08635 0.23704 -0.10578
-0.08063 0.23640 -0.10562
-0.07373 0.23563 -0.10543
-0.06542 0.23470 -0.10520
-0.05539 0.23358 -0.10492
-0.04329 0.23222 -0.10459
-0.02871 0.23059 -0.10418
-0.01112 0.22862 -0.10370
0.01008 0.22625 -0.10311
0.03566 0.22339 -0.10240
0.06586 0.22001 -0.10157
0.09797 0.21642 -0.10068
0.13255 0.21255 -0.09972
0.16988 0.20837 -0.09869
0.21021 0.20386 -0.09757
0.25386 0.19898 -0.09636
0.30113 0.19369 -0.09505
0.35236 0.18796 -0.09364
0.40793 0.18174 -0.09210
0.46824 0.17499 -0.09043
0.53371 0.16767 -0.08862
0.60482 0.15971 -0.08665
0.68206 0.15107 -0.08451
0.76600 0.14168 -0.08219
0.85724 0.13147 -0.07966
0.95641 0.12038 -0.07692
1.06422 0.10831 -0.07393
1.18146 0.09520 -0.07069
1.30893 0.08094 -0.06716
1.44757 0.06543 -0.06332
1.59834 0.04856 -0.05915
-0.10949 0.27425 -0.12216
-0.10556 0.27381 -0.12206
-0.10082 0.27328 -0.12192
-0.09510 0.27264 -0.12177
-0.08820 0.27187 -0.12157
-0.07988 0.27094 -0.12134
-0.06986 0.26982 -0.12107
-0.05776 0.26847 -0.12073
-0.04318 0.26683 -0.12033
-0.02559 0.26487 -0.11984
-0.00438 0.26249 -0.11925
0.02119 0.25963 -0.11855
0.05139 0.25625 -0.11771
0.08350 0.25266 -0.11682
0.11809 0.24879 -0.11586
0.15541 0.24462 -0.11483
0.19574 0.24010 -0.11371
0.23939 0.23522 -0.11251
0.28666 0.22993 -0.11120
0.33789 0.22420 -0.10978
0.39347 0.21798 -0.10824
0.45377 0.21124 -0.10657
0.51924 0.20391 -0.10476
0.59035 0.19596 -0.10279
0.66760 0.18731 -0.10065
0.75154 0.17792 -0.09833
0.84277 0.16771 -0.09580
0.94194 0.15662 -0.09306
1.04976 0.14456 -0.09007
1.16699 0.13144 -0.08683
1.29446 0.11718 -0.08330
1.43310 0.10167 -0.07946
1.58387 0.08480 -0.07529
-0.12515 0.31347 -0.13963
-0.12121 0.31303 -0.13952
-0.11647 0.31250 -0.13939
-0.11075 0.31186 -0.13923
-0.10386 0.31109 -0.13904
-0.09554 0.31016 -0.13881
-0.08551 0.30903 -0.13853
-0.07342 0.30768 -0.13820
-0.05883 0.30605 -0.13780
-0.04125 0.30408 -0.13731
-0.02004 0.30171 -0.13672
0.00553 0.29885 -0.13601
0.03574 0.29547 -0.13518
0.06784 0.29188 -0.13429
0.10243 0.28801 -0.13333
0.13975 0.28383 -0.13230
0.18009 0.27932 -0.13118
0.22373 0.27444 -0.12997
0.27100 0.26915 -0.12867
0.32224 0.26341 -0.12725
0.37781 0.25720 -0.12571
0.43812 0.25045 -0.12404
0.50359 0.24312 -0.12223
0.57469 0.23517 -0.12026
0.65194 0.22653 -0.11812
0.73588 0.21714 -0.11580
0.82711 0.20693 -0.11327
0.92628 0.19583 -0.11053
1.03410 0.18377 -0.10754
1.15133 0.17066 -0.10430
1.27881 0.15639 -0.10077
1.41744 0.14088 -0.09693
1.56821 0.12401 -0.09276
-0.14210 0.35594 -0.15855
-0.13817 0.35550 -0.15844
-0.13343 0.35497 -0.15831
-0.12771 0.35433 -0.15815
-0.12081 0.35356 -0.15796
-0.11250 0.35263 -0.15773
-0.10247 0.35150 -0.15745
-0.09037 0.35015 -0.15712
-0.07579 0.34852 -0.15671
-0.05820 0.34655 -0.15623
-0.03700 0.34418 -0.15564
-0.01142 0.34132 -0.15493
0.01878 0.33794 -0.15410
0.05089 0.33435 -0.15321
0.08547 0.33048 -0.15225
0.12280 0.32630 -0.15122
0.16313 0.32179 -0.15010
0.20678 0.31691 -0.14889
0.25405 0.31162 -0.14758
0.30528 0.30589 -0.14617
0.36085 0.29967 -0.14463
0.42116 0.29292 -0.14296
0.48663 0.28560 -0.14115
0.55774 0.27764 -0.13918
0.63498 0.26900 -0.13704
0.71892 0.25961 -0.13472
0.81016 0.24940 -0.13219
0.90933 0.23831 -0.12945
1.01714 0.22624 -0.12646
1.13437 0.21313 -0.12322
1.26185 0.19886 -0.11969
1.40049 0.18335 -0.11585
1.55126 0.16649 -0.11168
-0.16048 0.40197 -0.17906
-0.15655 0.40153 -0.17895
-0.15181 0.40100 -0.17882
-0.14609 0.40036 -0.17866
-0.13919 0.39959 -0.17847
-0.13087 0.39866 -0.17824
-0.12085 0.39754 -0.17796
-0.10875 0.39619 -0.17762
-0.09417 0.39456 -0.17722
-0.07658 0.39259 -0.17673
-0.05538 0.39022 -0.17615
-0.02980 0.38735 -0.17544
0.00040 0.38398 -0.17460
0.03251 0.38038 -0.17371
0.06709 0.37651 -0.17276
0.10442 0.37234 -0.17172
0.14475 0.36783 -0.17061
0.18840 0.36294 -0.16940
0.23567 0.35765 -0.16809
0.28690 0.35192 -0.16667
0.34247 0.34570 -0.16513
0.40278 0.33896 -0.16346
0.46825 0.33163 -0.16165
0.53936 0.32368 -0.15968
0.61661 0.31503 -0.15755
0.70055 0.30564 -0.15522
0.79178 0.29544 -0.15270
0.89095 0.28434 -0.14995
0.99876 0.27228 -0.14697
1.11600 0.25916 -0.14372
1.24347 0.24490 -0.14019
1.38211 0.22939 -0.13636
1.53288 0.21252 -0.13218
-0.18041 0.45191 -0.20130
-0.17648 0.45147 -0.20119
-0.17174 0.45094 -0.20106
-0.16602 0.45030 -0.20090
-0.15912 0.44952 -0.20071
-0.15081 0.44859 -0.20048
-0.14078 0.44747 -0.20020
-0.12869 0.44612 -0.19987
-0.11410 0.44449 -0.19946
-0.09652 0.44252 -0.19898
-0.07531 0.44015 -0.19839
-0.04973 0.43729 -0.19768
-0.01953 0.43391 -0.19684
0.01257 0.43031 -0.19596
0.04716 0.42644 -0.19500
0.08448 0.42227 -0.19397
0.12482 0.41776 -0.19285
0.16846 0.41287 -0.19164
0.21573 0.40758 -0.19033
0.26697 0.40185 -0.18891
0.32254 0.39563 -0.18738
0.38285 0.38889 -0.18571
0.44832 0.38156 -0.18389
0.51942 0.37361 -0.18193
0.59667 0.36497 -0.17979
0.68061 0.35557 -0.17746
0.77184 0.34537 -0.17494
0.87101 0.33427 -0.17219
0.97883 0.32221 -0.16921
1.09606 0.30909 -0.16596
1.22354 0.29483 -0.16243
1.36217 0.27932 -0.15860
1.51295 0.26245 -0.15442
-0.20205 0.50609 -0.22543
-0.19811 0.50565 -0.22533
-0.19337 0.50512 -0.22519
-0.18765 0.50448 -0.22504
-0.18076 0.50371 -0.22485
-0.17244 0.50278 -0.22461
-0.16241 0.50166 -0.22434
-0.15032 0.50030 -0.22400
-0.13574 0.49867 -0.22360
-0.11815 0.49670 -0.22311
-0.09694 0.49433 -0.22252
-0.07137 0.49147 -0.22182
-0.04117 0.48809 -0.22098
-0.00906 0.48450 -0.22009
0.02553 0.48063 -0.21913
0.06285 0.47645 -0.21810
0.10319 0.47194 -0.21698
0.14683 0.46706 -0.21578
0.19410 0.46177 -0.21447
0.24534 0.45604 -0.21305
0.30091 0.44982 -0.21151
0.36121 0.44307 -0.20984
0.42669 0.43575 -0.20803
0.49779 0.42779 -0.20606
0.57504 0.41915 -0.20392
0.65898 0.40976 -0.20160
0.75021 0.39955 -0.19907
0.84938 0.38846 -0.19633
0.95720 0.37639 -0.19334
1.07443 0.36328 -0.19010
1.20191 0.34902 -0.18657
1.34054 0.33351 -0.18273
1.49131 0.31664 -0.17856
-0.22553 0.56492 -0.25164
-0.22160 0.56448 -0.25153
-0.21686 0.56395 -0.25140
-0.21114 0.56331 -0.25124
-0.20424 0.56253 -0.25105
-0.19593 0.56160 -0.25082
-0.18590 0.56048 -0.25054
-0.17380 0.55913 -0.25021
-0.15922 0.55750 -0.24980
-0.14163 0.55553 -0.24932
-0.12043 0.55316 -0.24873
-0.09485 0.55030 -0.24802
-0.06465 0.54692 -0.24718
-0.03254 0.54333 -0.24630
0.00204 0.53946 -0.24534
0.03937 0.53528 -0.24431
0.07970 0.53077 -0.24319
0.12335 0.52588 -0.24198
0.17062 0.52060 -0.24067
0.22185 0.51486 -0.23925
0.27742 0.50865 -0.23772
0.33773 0.50190 -0.23605
0.40320 0.49457 -0.23423
0.47431 0.48662 -0.23227
0.55155 0.47798 -0.23013
0.63549 0.46859 -0.22780
0.72672 0.45838 -0.22528
0.82590 0.44728 -0.22253
0.93371 0.43522 -0.21955
1.05094 0.42210 -0.21630
1.17842 0.40784 -0.21277
1.31706 0.39233 -0.20894
1.46783 0.37546 -0.20476
-0.25104 0.62881 -0.28010
-0.24711 0.62837 -0.27999
-0.24236 0.62783 -0.27986
-0.23664 0.62719 -0.27970
-0.22975 0.62642 -0.27951
-0.22143 0.62549 -0.27928
-0.21140 0.62437 -0.27900
-0.19931 0.62302 -0.27866
-0.18473 0.62139 -0.27826
-0.16714 0.61942 -0.27777
-0.14593 0.61705 -0.27719
-0.12036 0.61418 -0.27648
-0.09016 0.61081 -0.27564
-0.05805 0.60721 -0.27475
-0.02346 0.60334 -0.27380
0.01386 0.59917 -0.27276
0.05420 0.59466 -0.27165
0.09784 0.58977 -0.27044
0.14511 0.58448 -0.26913
0.19635 0.57875 -0.26771
0.25192 0.57253 -0.26617
0.31222 0.56579 -0.26450
0.37769 0.55846 -0.26269
0.44880 0.55051 -0.26072
0.52605 0.54186 -0.25859
0.60999 0.53247 -0.25626
0.70122 0.52227 -0.25374
0.80039 0.51117 -0.25099
0.90821 0.49911 -0.24801
1.02544 0.48599 -0.24476
1.15292 0.47173 -0.24123
1.29155 0.45622 -0.23740
1.44232 0.43935 -0.23322
-0.27875 0.69821 -0.31101
-0.27481 0.69777 -0.31090
-0.27007 0.69724 -0.31077
-0.26435 0.69660 -0.31062
-0.25746 0.69583 -0.31042
-0.24914 0.69490 -0.31019
-0.23911 0.69378 -0.30992
-0.22702 0.69242 -0.30958
-0.21244 0.69079 -0.30918
-0.19485 0.68883 -0.30869
-0.17364 0.68645 -0.30810
-0.14807 0.68359 -0.30740
-0.11787 0.68021 -0.30656
-0.08576 0.67662 -0.30567
-0.05117 0.67275 -0.30471
-0.01385 0.66858 -0.30368
0.02649 0.66406 -0.30256
0.07013 0.65918 -0.30136
0.11740 0.65389 -0.30005
0.16864 0.64816 -0.29863
0.22421 0.64194 -0.29709
0.28451 0.63519 -0.29542
0.34999 0.62787 -0.29361
0.42109 0.61991 -0.29164
0.49834 0.61127 -0.28950
0.58228 0.60188 -0.28718
0.67351 0.59167 -0.28465
0.77268 0.58058 -0.28191
0.88050 0.56852 -0.27892
0.99773 0.55540 -0.27568
1.12521 0.54114 -0.27215
1.26384 0.52563 -0.26831
1.41461 0.50876 -0.26414
-0.30886 0.77363 -0.34461
-0.30492 0.77319 -0.34450
-0.30018 0.77266 -0.34437
-0.29446 0.77202 -0.34421
-0.28757 0.77125 -0.34402
-0.27925 0.77032 -0.34379
-0.26922 0.76920 -0.34351
-0.25713 0.76784 -0.34318
-0.24255 0.76621 -0.34277
-0.22496 0.76425 -0.34229
-0.20375 0.76187 -0.34170
-0.17818 0.75901 -0.34099
-0.14798 0.75563 -0.34016
-0.11587 0.75204 -0.33927
-0.08128 0.74817 -0.33831
-0.04396 0.74400 -0.33728
-0.00362 0.73948 -0.33616
0.04002 0.73460 -0.33495
0.08729 0.72931 -0.33364
0.13853 0.72358 -0.33222
0.19410 0.71736 -0.33069
0.25440 0.71061 -0.32902
0.31988 0.70329 -0.32720
0.39098 0.69533 -0.32524
0.46823 0.68669 -0.32310
0.55217 0.67730 -0.32077
0.64340 0.66709 -0.31825
0.74257 0.65600 -0.31550
0.85039 0.64394 -0.31252
0.96762 0.63082 -0.30927
1.09510 0.61656 -0.30575
1.23373 0.60105 -0.30191
1.38450 0.58418 -0.29773
-0.34158 0.85560 -0.38112
-0.33765 0.85516 -0.38101
-0.33291 0.85463 -0.38088
-0.32719 0.85399 -0.38072
-0.32029 0.85322 -0.38053
-0.31198 0.85229 -0.38030
-0.30195 0.85117 -0.38003
-0.28985 0.84982 -0.37969
-0.27527 0.84818 -0.37929
-0.25768 0.84622 -0.37880
-0.23648 0.84384 -0.37821
-0.21090 0.84098 -0.37750
-0.18070 0.83760 -0.37667
-0.14859 0.83401 -0.37578
-0.11401 0.83014 -0.37482
-0.07668 0.82597 -0.37379
-0.03635 0.82145 -0.37267
0.00730 0.81657 -0.37146
0.05457 0.81128 -0.37016
0.10580 0.80555 -0.36874
0.16137 0.79933 -0.36720
0.22168 0.79259 -0.36553
0.28715 0.78526 -0.36372
0.35826 0.77731 -0.36175
0.43550 0.76866 -0.35961
0.51944 0.75927 -0.35729
0.61067 0.74906 -0.35476
0.70985 0.73797 -0.35202
0.81766 0.72591 -0.34903
0.93489 0.71279 -0.34579
1.06237 0.69853 -0.34226
1.20100 0.68302 -0.33842
1.35178 0.66615 -0.33425
-0.37716 0.94471 -0.42081
-0.37322 0.94427 -0.42070
-0.36848 0.94374 -0.42057
-0.36276 0.94310 -0.42042
-0.35587 0.94233 -0.42022
-0.34755 0.94140 -0.41999
-0.33752 0.94027 -0.41972
-0.32543 0.93892 -0.41938
-0.31084 0.93729 -0.41898
