GoPro MAX2 GP-Log to Rec.709 Technical 33.cube
LUT_3D_SIZE 9
0.00000 0.00000 0.00000
0.02129 -0.00238 0.00059
0.06631 -0.00742 0.00184
0.16088 -0.01800 0.00445
0.30523 -0.03415 0.00845
0.50296 -0.05627 0.01392
0.77709 -0.08694 0.02151
1.15925 -0.12970 0.03209
1.69336 -0.18945 0.04688
-0.00764 0.01913 -0.00852
0.01365 0.01675 -0.00793
0.05867 0.01171 -0.00669
0.15324 0.00113 -0.00407
0.29760 -0.01502 -0.00007
0.49532 -0.03714 0.00540
0.76945 -0.06781 0.01299
1.15161 -0.11057 0.02357
1.68572 -0.17032 0.03835
-0.02379 0.05958 -0.02654
-0.00250 0.05720 -0.02595
0.04252 0.05216 -0.02470
0.13709 0.04158 -0.02209
0.28145 0.02543 -0.01809
0.47917 0.00331 -0.01262
0.75330 -0.02736 -0.00503
1.13546 -0.07012 0.00555
1.66957 -0.12987 0.02034
-0.05771 0.14455 -0.06439
-0.03642 0.14217 -0.06380
0.00860 0.13713 -0.06255
0.10317 0.12655 -0.05994
0.24753 0.11040 -0.05594
0.44525 0.08828 -0.05047
0.71938 0.05761 -0.04288
1.10154 0.01485 -0.03230
1.63565 -0.04490 -0.01751
-0.10949 0.27425 -0.12216
-0.08820 0.27187 -0.12157
-0.04318 0.26683 -0.12033
0.05139 0.25625 -0.11771
0.19574 0.24010 -0.11371
0.39347 0.21798 -0.10824
0.66760 0.18731 -0.10065
1.04976 0.14456 -0.09007
1.58387 0.08480 -0.07529
-0.18041 0.45191 -0.20130
-0.15912 0.44952 -0.20071
-0.11410 0.44449 -0.19946
-0.01953 0.43391 -0.19684
0.12482 0.41776 -0.19285
0.32254 0.39563 -0.18738
0.59667 0.36497 -0.17979
0.97883 0.32221 -0.16921
1.51295 0.26245 -0.15442
-0.27875 0.69821 -0.31101
-0.25746 0.69583 -0.31042
-0.21244 0.69079 -0.30918
-0.11787 0.68021 -0.30656
0.02649 0.66406 -0.30256
0.22421 0.64194 -0.29709
0.49834 0.61127 -0.28950
0.88050 0.56852 -0.27892
1.41461 0.50876 -0.26414
-0.41583 1.04158 -0.46397
-0.39454 1.03920 -0.46338
-0.34952 1.03416 -0.46213
-0.25495 1.02358 -0.45951
-0.11060 1.00743 -0.45552
0.08712 0.98531 -0.45004
0.36126 0.95464 -0.44245
0.74341 0.91189 -0.43188
1.27753 0.85213 -0.41709
-0.60742 1.52148 -0.67773
-0.58613 1.51910 -0.67715
-0.54111 1.51407 -0.67590
-0.44654 1.50349 -0.67328
-0.30219 1.48733 -0.66928
-0.10447 1.46521 -0.66381
0.16966 1.43454 -0.65622
0.55182 1.39179 -0.64564
1.08594 1.33203 -0.63086
-0.00108 -0.00417 0.02050
0.02021 -0.00656 0.02109
0.06523 -0.01159 0.02234
0.15980 -0.02217 0.02496
0.30415 -0.03832 0.02895
0.50187 -0.06045 0.03443
0.77601 -0.09111 0.04201
1.15816 -0.13387 0.05259
1.69228 -0.19363 0.06738
-0.00872 0.01495 0.01198
0.01257 0.01257 0.01257
0.05759 0.00754 0.01382
0.15216 -0.00305 0.01644
0.29652 -0.01920 0.02043
0.49424 -0.04132 0.02591
0.76837 -0.07199 0.03349
1.15053 -0.11474 0.04407
1.68464 -0.17450 0.05886
-0.02487 0.05541 -0.00604
-0.00358 0.05302 -0.00545
0.04144 0.04799 -0.00420
0.13601 0.03741 -0.00158
0.28037 0.02126 0.00241
0.47809 -0.00086 0.00789
0.75222 -0.03153 0.01547
1.13438 -0.07429 0.02605
1.66849 -0.13405 0.04084
-0.05879 0.14038 -0.04389
-0.03750 0.13800 -0.04330
0.00752 0.13296 -0.04205
0.10209 0.12238 -0.03943
0.24644 0.10623 -0.03544
0.44417 0.08411 -0.02996
0.71830 0.05344 -0.02237
1.10046 0.01068 -0.01180
1.63457 -0.04908 0.00299
-0.11057 0.27008 -0.10166
-0.08928 0.26770 -0.10107
-0.04426 0.26266 -0.09982
0.05031 0.25208 -0.09721
0.19466 0.23593 -0.09321
0.39238 0.21381 -0.08774
0.66652 0.18314 -0.08015
1.04867 0.14038 -0.06957
1.58279 0.08063 -0.05479
-0.18149 0.44773 -0.18079
-0.16021 0.44535 -0.18021
-0.11518 0.44031 -0.17896
-0.02061 0.42973 -0.17634
0.12374 0.41358 -0.17235
0.32146 0.39146 -0.16687
0.59559 0.36079 -0.15928
0.97775 0.31803 -0.14870
1.51186 0.25828 -0.13392
-0.27983 0.69404 -0.29051
-0.25854 0.69166 -0.28992
-0.21352 0.68662 -0.28867
-0.11895 0.67604 -0.28606
0.02541 0.65989 -0.28206
0.22313 0.63777 -0.27659
0.49726 0.60710 -0.26900
0.87942 0.56434 -0.25842
1.41353 0.50458 -0.24363
-0.41691 1.03741 -0.44346
-0.39562 1.03503 -0.44287
-0.35060 1.02999 -0.44163
-0.25603 1.01941 -0.43901
-0.11168 1.00326 -0.43501
0.08604 0.98114 -0.42954
0.36017 0.95047 -0.42195
0.74233 0.90771 -0.41137
1.27645 0.84795 -0.39659
-0.60850 1.51731 -0.65723
-0.58721 1.51493 -0.65664
-0.54219 1.50989 -0.65540
-0.44762 1.49931 -0.65278
-0.30327 1.48316 -0.64878
-0.10555 1.46104 -0.64331
0.16858 1.43037 -0.63572
0.55074 1.38761 -0.62514
1.08486 1.32786 -0.61036
-0.00337 -0.01300 0.06386
0.01792 -0.01538 0.06445
0.06295 -0.02042 0.06570
0.15752 -0.03100 0.06832
0.30187 -0.04715 0.07231
0.49959 -0.06927 0.07779
0.77372 -0.09994 0.08537
1.15588 -0.14270 0.09595
1.68999 -0.20246 0.11074
-0.01100 0.00613 0.05534
0.01029 0.00374 0.05593
0.05531 -0.00129 0.05718
0.14988 -0.01187 0.05980
0.29423 -0.02802 0.06379
0.49195 -0.05014 0.06927
0.76608 -0.08081 0.07685
1.14824 -0.12357 0.08743
1.68236 -0.18333 0.10222
-0.02715 0.04658 0.03732
-0.00586 0.04420 0.03791
0.03916 0.03916 0.03916
0.13373 0.02858 0.04178
0.27808 0.01243 0.04577
0.47580 -0.00969 0.05125
0.74993 -0.04036 0.05883
1.13209 -0.08312 0.06941
1.66621 -0.14287 0.08420
-0.06107 0.13155 -0.00053
-0.03979 0.12917 0.00006
0.00524 0.12413 0.00131
0.09981 0.11355 0.00393
0.24416 0.09740 0.00792
0.44188 0.07528 0.01340
0.71601 0.04461 0.02099
1.09817 0.00185 0.03156
1.63228 -0.05790 0.04635
-0.11286 0.26125 -0.05830
-0.09157 0.25887 -0.05771
-0.04654 0.25383 -0.05647
0.04803 0.24325 -0.05385
0.19238 0.22710 -0.04985
0.39010 0.20498 -0.04438
0.66423 0.17431 -0.03679
1.04639 0.13155 -0.02621
1.58050 0.07180 -0.01143
-0.18378 0.43890 -0.13743
-0.16249 0.43652 -0.13685
-0.11747 0.43148 -0.13560
-0.02290 0.42090 -0.13298
0.12145 0.40475 -0.12899
0.31918 0.38263 -0.12351
0.59331 0.35196 -0.11592
0.97547 0.30921 -0.10534
1.50958 0.24945 -0.09056
-0.28211 0.68521 -0.24715
-0.26082 0.68283 -0.24656
-0.21580 0.67779 -0.24531
-0.12123 0.66721 -0.24270
0.02312 0.65106 -0.23870
0.22084 0.62894 -0.23323
0.49497 0.59827 -0.22564
0.87713 0.55551 -0.21506
1.41125 0.49576 -0.20028
-0.41920 1.02858 -0.40010
-0.39791 1.02620 -0.39951
-0.35289 1.02116 -0.39827
-0.25832 1.01058 -0.39565
-0.11396 0.99443 -0.39165
0.08376 0.97231 -0.38618
0.35789 0.94164 -0.37859
0.74005 0.89888 -0.36801
1.27416 0.83913 -0.35323
-0.61079 1.50848 -0.61387
-0.58950 1.50610 -0.61328
-0.54448 1.50106 -0.61204
-0.44991 1.49048 -0.60942
-0.30555 1.47433 -0.60542
-0.10783 1.45221 -0.59995
0.16630 1.42154 -0.59236
0.54846 1.37879 -0.58178
1.08257 1.31903 -0.56700
-0.00816 -0.03155 0.15494
0.01312 -0.03393 0.15553
0.05815 -0.03896 0.15678
0.15272 -0.04954 0.15940
0.29707 -0.06569 0.16339
0.49479 -0.08782 0.16887
0.76892 -0.11849 0.17645
1.15108 -0.16124 0.18703
1.68519 -0.22100 0.20182
-0.01580 -0.01242 0.14642
0.00549 -0.01480 0.14701
0.05051 -0.01984 0.14826
0.14508 -0.03042 0.15088
0.28943 -0.04657 0.15487
0.48715 -0.06869 0.16034
0.76128 -0.09936 0.16793
1.14344 -0.14211 0.17851
1.67756 -0.20187 0.19330
-0.03195 0.02804 0.12840
-0.01066 0.02565 0.12899
0.03436 0.02062 0.13024
0.12893 0.01004 0.13286
0.27328 -0.00611 0.13685
0.47100 -0.02824 0.14233
0.74513 -0.05891 0.14991
1.12729 -0.10166 0.16049
1.66141 -0.16142 0.17528
-0.06587 0.11301 0.09055
-0.04458 0.11062 0.09114
0.00044 0.10559 0.09239
0.09501 0.09501 0.09501
0.23936 0.07886 0.09900
0.43708 0.05674 0.10448
0.71121 0.02607 0.11206
1.09337 -0.01669 0.12264
1.62749 -0.07645 0.13743
-0.11765 0.24271 0.03278
-0.09637 0.24033 0.03337
-0.05134 0.23529 0.03461
0.04323 0.22471 0.03723
0.18758 0.20856 0.04123
0.38530 0.18644 0.04670
0.65943 0.15577 0.05429
1.04159 0.11301 0.06487
1.57570 0.05325 0.07965
-0.18858 0.42036 -0.04636
-0.16729 0.41798 -0.04577
-0.12227 0.41294 -0.04452
-0.02770 0.40236 -0.04190
0.11666 0.38621 -0.03791
0.31438 0.36409 -0.03243
0.58851 0.33342 -0.02484
0.97067 0.29066 -0.01427
1.50478 0.23091 0.00052
-0.28691 0.66667 -0.15607
-0.26562 0.66428 -0.15548
-0.22060 0.65925 -0.15424
-0.12603 0.64867 -0.15162
0.01832 0.63252 -0.14762
0.21604 0.61040 -0.14215
0.49017 0.57973 -0.13456
0.87233 0.53697 -0.12398
1.40645 0.47721 -0.10920
-0.42400 1.01004 -0.30902
-0.40271 1.00766 -0.30843
-0.35768 1.00262 -0.30719
-0.26311 0.99204 -0.30457
-0.11876 0.97589 -0.30057
0.07896 0.95377 -0.29510
0.35309 0.92310 -0.28751
0.73525 0.88034 -0.27693
1.26936 0.82058 -0.26215
-0.61559 1.48994 -0.52279
-0.59430 1.48756 -0.52220
-0.54928 1.48252 -0.52096
-0.45471 1.47194 -0.51834
-0.31035 1.45579 -0.51434
-0.11263 1.43367 -0.50887
0.16150 1.40300 -0.50128
0.54366 1.36024 -0.49070
1.07777 1.30049 -0.47592
-0.01549 -0.05985 0.29397
0.00580 -0.06223 0.29456
0.05082 -0.06727 0.29580
0.14539 -0.07785 0.29842
0.28974 -0.09400 0.30242
0.48746 -0.11612 0.30789
0.76160 -0.14679 0.31548
1.14375 -0.18955 0.32606
1.67787 -0.24930 0.34084
-0.02313 -0.04072 0.28545
-0.00184 -0.04310 0.28604
0.04318 -0.04814 0.28728
0.13775 -0.05872 0.28990
0.28211 -0.07487 0.29390
0.47983 -0.09699 0.29937
0.75396 -0.12766 0.30696
1.13612 -0.17042 0.31754
1.67023 -0.23017 0.33232
-0.03928 -0.00027 0.26743
-0.01799 -0.00265 0.26802
0.02703 -0.00769 0.26926
0.12160 -0.01827 0.27188
0.26596 -0.03442 0.27588
0.46368 -0.05654 0.28135
0.73781 -0.08721 0.28894
1.11997 -0.12997 0.29952
1.65408 -0.18972 0.31430
-0.07320 0.08470 0.22958
-0.05191 0.08232 0.23017
-0.00689 0.07728 0.23141
0.08768 0.06670 0.23403
0.23203 0.05055 0.23803
0.42976 0.02843 0.24350
0.70389 -0.00224 0.25109
1.08605 -0.04499 0.26167
1.62016 -0.10475 0.27645
-0.12498 0.21440 0.17180
-0.10369 0.21202 0.17239
-0.05867 0.20698 0.17364
0.03590 0.19640 0.17626
0.18025 0.18025 0.18025
0.37797 0.15813 0.18573
0.65211 0.12746 0.19332
1.03426 0.08471 0.20389
1.56838 0.02495 0.21868
-0.19590 0.39206 0.09267
-0.17462 0.38967 0.09326
-0.12959 0.38464 0.09451
-0.03502 0.37406 0.09712
0.10933 0.35791 0.10112
0.30705 0.33579 0.10659
0.58118 0.30512 0.11418
0.96334 0.26236 0.12476
1.49745 0.20260 0.13955
-0.29424 0.63836 -0.01705
-0.27295 0.63598 -0.01646
-0.22793 0.63094 -0.01521
-0.13336 0.62036 -0.01259
0.01100 0.60421 -0.00860
0.20872 0.58209 -0.00312
0.48285 0.55142 0.00447
0.86501 0.50867 0.01504
1.39912 0.44891 0.02983
-0.43132 0.98173 -0.17000
-0.41003 0.97935 -0.16941
-0.36501 0.97431 -0.16816
-0.27044 0.96373 -0.16554
-0.12609 0.94758 -0.16155
0.07163 0.92546 -0.15607
0.34576 0.89479 -0.14849
0.72792 0.85204 -0.13791
1.26204 0.79228 -0.12312
-0.62291 1.46163 -0.38377
-0.60162 1.45925 -0.38318
-0.55660 1.45422 -0.38193
-0.46203 1.44364 -0.37931
-0.31768 1.42748 -0.37532
-0.11996 1.40536 -0.36984
0.15417 1.37469 -0.36225
0.53633 1.33194 -0.35168
1.07045 1.27218 -0.33689
-0.02552 -0.09862 0.48439
-0.00424 -0.10100 0.48498
0.04079 -0.10604 0.48623
0.13536 -0.11662 0.48885
0.27971 -0.13277 0.49284
0.47743 -0.15489 0.49831
0.75156 -0.18556 0.50590
1.13372 -0.22832 0.51648
1.66783 -0.28807 0.53127
-0.03316 -0.07949 0.47587
-0.01187 -0.08187 0.47646
0.03315 -0.08691 0.47771
0.12772 -0.09749 0.48032
0.27207 -0.11364 0.48432
0.46979 -0.13576 0.48979
0.74392 -0.16643 0.49738
1.12608 -0.20919 0.50796
1.66020 -0.26894 0.52275
-0.04931 -0.03904 0.45785
-0.02802 -0.04142 0.45844
0.01700 -0.04646 0.45969
0.11157 -0.05704 0.46231
0.25592 -0.07319 0.46630
0.45364 -0.09531 0.47177
0.72777 -0.12598 0.47936
1.10993 -0.16873 0.48994
1.64405 -0.22849 0.50473
-0.08323 0.04593 0.42000
-0.06194 0.04355 0.42059
-0.01692 0.03851 0.42184
0.07765 0.02793 0.42446
0.22200 0.01178 0.42845
0.41972 -0.01034 0.43393
0.69385 -0.04101 0.44151
1.07601 -0.08376 0.45209
1.61013 -0.14352 0.46688
-0.13501 0.17563 0.36223
-0.11373 0.17325 0.36282
-0.06870 0.16822 0.36406
0.02587 0.15764 0.36668
0.17022 0.14148 0.37068
0.36794 0.11936 0.37615
0.64207 0.08869 0.38374
1.02423 0.04594 0.39432
1.55834 -0.01382 0.40910
-0.20594 0.35329 0.28309
-0.18465 0.35091 0.28368
-0.13963 0.34587 0.28493
-0.04506 0.33529 0.28755
0.09930 0.31914 0.29154
0.29702 0.29702 0.29702
0.57115 0.26635 0.30460
0.95331 0.22359 0.31518
1.48742 0.16383 0.32997
-0.30427 0.59959 0.17338
-0.28298 0.59721 0.17397
-0.23796 0.59217 0.17521
-0.14339 0.58159 0.17783
0.00096 0.56544 0.18183
0.19868 0.54332 0.18730
0.47281 0.51265 0.19489
0.85497 0.46990 0.20547
1.38909 0.41014 0.22025
-0.44136 0.94296 0.02043
-0.42007 0.94058 0.02102
-0.37504 0.93554 0.02226
-0.28047 0.92496 0.02488
-0.13612 0.90881 0.02888
0.06160 0.88669 0.03435
0.33573 0.85602 0.04194
0.71789 0.81327 0.05252
1.25200 0.75351 0.06730
-0.63295 1.42287 -0.19334
-0.61166 1.42048 -0.19275
-0.56664 1.41545 -0.19151
-0.47207 1.40487 -0.18889
-0.32771 1.38872 -0.18489
-0.12999 1.36660 -0.17942
0.14414 1.33593 -0.17183
0.52630 1.29317 -0.16125
1.06041 1.23341 -0.14647
-0.03944 -0.15237 0.74840
-0.01815 -0.15475 0.74899
0.02687 -0.15979 0.75024
0.12144 -0.17037 0.75286
0.26580 -0.18652 0.75685
0.46352 -0.20864 0.76233
0.73765 -0.23931 0.76992
1.11981 -0.28207 0.78049
1.65392 -0.34182 0.79528
-0.04707 -0.13324 0.73988
-0.02578 -0.13562 0.74047
0.01924 -0.14066 0.74172
0.11381 -0.15124 0.74434
0.25816 -0.16739 0.74833
0.45588 -0.18951 0.75381
0.73001 -0.22018 0.76139
1.11217 -0.26294 0.77197
1.64629 -0.32269 0.78676
-0.06322 -0.09279 0.72186
-0.04193 -0.09517 0.72245
0.00309 -0.10021 0.72370
0.09766 -0.11079 0.72632
0.24201 -0.12694 0.73031
0.43973 -0.14906 0.73579
0.71386 -0.17973 0.74338
1.09602 -0.22249 0.75395
1.63014 -0.28224 0.76874
-0.09715 -0.00782 0.68402
-0.07586 -0.01020 0.68460
-0.03084 -0.01524 0.68585
0.06373 -0.02582 0.68847
0.20809 -0.04197 0.69246
0.40581 -0.06409 0.69794
0.67994 -0.09476 0.70553
1.06210 -0.13751 0.71610
1.59621 -0.19727 0.73089
-0.14893 0.12188 0.62624
-0.12764 0.11950 0.62683
-0.08262 0.11446 0.62808
0.01195 0.10388 0.63069
0.15631 0.08773 0.63469
0.35403 0.06561 0.64016
0.62816 0.03494 0.64775
1.01032 -0.00781 0.65833
1.54443 -0.06757 0.67312
-0.21985 0.29954 0.54711
-0.19856 0.29715 0.54770
-0.15354 0.29212 0.54894
-0.05897 0.28154 0.55156
0.08538 0.26539 0.55556
0.28310 0.24327 0.56103
0.55723 0.21260 0.56862
0.93939 0.16984 0.57920
1.47351 0.11008 0.59398
-0.31818 0.54584 0.43739
-0.29689 0.54346 0.43798
-0.25187 0.53842 0.43923
-0.15730 0.52784 0.44184
-0.01295 0.51169 0.44584
0.18477 0.48957 0.45131
0.45890 0.45890 0.45890
0.84106 0.41615 0.46948
1.37518 0.35639 0.48427
-0.45527 0.88921 0.28444
-0.43398 0.88683 0.28503
-0.38896 0.88179 0.28627
-0.29439 0.87121 0.28889
-0.15003 0.85506 0.29289
0.04769 0.83294 0.29836
0.32182 0.80227 0.30595
0.70398 0.75952 0.31653
1.23809 0.69976 0.33131
-0.64686 1.36911 0.07067
-0.62557 1.36673 0.07126
-0.58055 1.36170 0.07251
-0.48598 1.35112 0.07512
-0.34162 1.33496 0.07912
-0.14390 1.31284 0.08459
0.13023 1.28217 0.09218
0.51239 1.23942 0.10276
1.04650 1.17966 0.11755
-0.05883 -0.22730 1.11646
-0.03754 -0.22968 1.11705
0.00748 -0.23472 1.11829
0.10205 -0.24530 1.12091
0.24640 -0.26145 1.12491
0.44412 -0.28357 1.13038
0.71825 -0.31424 1.13797
1.10041 -0.35700 1.14855
1.63453 -0.41676 1.16333
-0.06647 -0.20817 1.10794
-0.04518 -0.21056 1.10853
-0.00016 -0.21559 1.10977
0.09441 -0.22617 1.11239
0.23877 -0.24232 1.11639
0.43649 -0.26445 1.12186
0.71062 -0.29511 1.12945
1.09278 -0.33787 1.14003
1.62689 -0.39763 1.15481
-0.08262 -0.16772 1.08992
-0.06133 -0.17010 1.09051
-0.01631 -0.17514 1.09175
0.07826 -0.18572 1.09437
0.22262 -0.20187 1.09837
0.42034 -0.22399 1.10384
0.69447 -0.25466 1.11143
1.07663 -0.29742 1.12201
1.61074 -0.35718 1.13679
-0.11654 -0.08275 1.05207
-0.09525 -0.08513 1.05266
-0.05023 -0.09017 1.05391
0.04434 -0.10075 1.05652
0.18869 -0.11690 1.06052
0.38641 -0.13902 1.06599
0.66055 -0.16969 1.07358
1.04270 -0.21245 1.08416
1.57682 -0.27220 1.09894
-0.16832 0.04695 0.99429
-0.14703 0.04457 0.99488
-0.10201 0.03953 0.99613
-0.00744 0.02895 0.99875
0.13691 0.01280 1.00274
0.33463 -0.00932 1.00822
0.60876 -0.03999 1.01581
0.99092 -0.08275 1.02638
1.52504 -0.14250 1.04117
-0.23925 0.22460 0.91516
-0.21796 0.22222 0.91575
-0.17293 0.21718 0.91700
-0.07836 0.20660 0.91961
0.06599 0.19045 0.92361
0.26371 0.16833 0.92908
0.53784 0.13766 0.93667
0.92000 0.09491 0.94725
1.45411 0.03515 0.96204
-0.33758 0.47091 0.80545
-0.31629 0.46853 0.80603
-0.27127 0.46349 0.80728
-0.17670 0.45291 0.80990
-0.03234 0.43676 0.81389
0.16538 0.41464 0.81937
0.43951 0.38397 0.82696
0.82167 0.34121 0.83754
1.35578 0.28146 0.85232
-0.47466 0.81428 0.65249
-0.45337 0.81190 0.65308
-0.40835 0.80686 0.65433
-0.31378 0.79628 0.65695
-0.16943 0.78013 0.66094
0.02829 0.75801 0.66642
0.30242 0.72734 0.67400
0.68458 0.68458 0.68458
1.21870 0.62483 0.69937
-0.66625 1.29418 0.43872
-0.64496 1.29180 0.43931
-0.59994 1.28676 0.44056
-0.50537 1.27618 0.44318
-0.36102 1.26003 0.44717
-0.16330 1.23791 0.45265
0.11083 1.20724 0.46024
0.49299 1.16448 0.47081
1.02711 1.10473 0.48560
-0.08594 -0.33203 1.63086
-0.06465 -0.33441 1.63145
-0.01963 -0.33945 1.63269
0.07494 -0.35003 1.63531
0.21930 -0.36618 1.63931
0.41702 -0.38830 1.64478
0.69115 -0.41897 1.65237
1.07331 -0.46173 1.66295
1.60742 -0.52148 1.67773
-0.09357 -0.31290 1.62234
-0.07228 -0.31528 1.62293
-0.02726 -0.32032 1.62417
0.06731 -0.33090 1.62679
0.21166 -0.34705 1.63079
0.40938 -0.36917 1.63626
0.68351 -0.39984 1.64385
1.06567 -0.44260 1.65443
1.59979 -0.50236 1.66921
-0.10972 -0.27245 1.60432
-0.08843 -0.27483 1.60491
-0.04341 -0.27987 1.60616
0.05116 -0.29045 1.60877
0.19551 -0.30660 1.61277
0.39323 -0.32872 1.61824
0.66736 -0.35939 1.62583
1.04952 -0.40215 1.63641
1.58364 -0.46190 1.65119
-0.14365 -0.18748 1.56647
-0.12236 -0.18986 1.56706
-0.07734 -0.19490 1.56831
0.01723 -0.20548 1.57092
0.16159 -0.22163 1.57492
0.35931 -0.24375 1.58039
0.63344 -0.27442 1.58798
1.01560 -0.31718 1.59856
1.54971 -0.37693 1.61335
-0.19543 -0.05778 1.50870
-0.17414 -0.06016 1.50928
-0.12912 -0.06520 1.51053
-0.03455 -0.07578 1.51315
0.10981 -0.09193 1.51714
0.30753 -0.11405 1.52262
0.58166 -0.14472 1.53021
0.96382 -0.18747 1.54079
1.49793 -0.24723 1.55557
-0.26635 0.11987 1.42956
-0.24506 0.11749 1.43015
-0.20004 0.11246 1.43140
-0.10547 0.10188 1.43401
0.03888 0.08572 1.43801
0.23660 0.06360 1.44348
0.51073 0.03293 1.45107
0.89289 -0.00982 1.46165
1.42701 -0.06958 1.47644
-0.36468 0.36618 1.31985
-0.34340 0.36380 1.32044
-0.29837 0.35876 1.32168
-0.20380 0.34818 1.32430
-0.05945 0.33203 1.32830
0.13827 0.30991 1.33377
0.41240 0.27924 1.34136
0.79456 0.23648 1.35194
1.32867 0.17673 1.36672
-0.50177 0.70955 1.16689
-0.48048 0.70717 1.16748
-0.43546 0.70213 1.16873
-0.34089 0.69155 1.17135
-0.19653 0.67540 1.17534
0.00119 0.65328 1.18082
0.27532 0.62261 1.18840
0.65748 0.57985 1.19898
1.19159 0.52010 1.21377
-0.69336 1.18945 0.95312
-0.67207 1.18707 0.95371
-0.62705 1.18203 0.95496
-0.53248 1.17145 0.95758
-0.38813 1.15530 0.96157
-0.19040 1.13318 0.96705
0.08373 1.10251 0.97464
0.46589 1.05976 0.98521
1.00000 1.00000 1.00000
