GoPro MAX2 GP-Log to Rec.709 Technical 33.cube
LUT_3D_SIZE 5
0.00000 0.00000 0.00000
0.06631 -0.00742 0.00184
0.30523 -0.03415 0.00845
0.77709 -0.08694 0.02151
1.69336 -0.18945 0.04688
-0.02379 0.05958 -0.02654
0.04252 0.05216 -0.02470
0.28145 0.02543 -0.01809
0.75330 -0.02736 -0.00503
1.66957 -0.12987 0.02034
-0.10949 0.27425 -0.12216
-0.04318 0.26683 -0.12033
0.19574 0.24010 -0.11371
0.66760 0.18731 -0.10065
1.58387 0.08480 -0.07529
-0.27875 0.69821 -0.31101
-0.21244 0.69079 -0.30918
0.02649 0.66406 -0.30256
0.49834 0.61127 -0.28950
1.41461 0.50876 -0.26414
-0.60742 1.52148 -0.67773
-0.54111 1.51407 -0.67590
-0.30219 1.48733 -0.66928
0.16966 1.43454 -0.65622
1.08594 1.33203 -0.63086
-0.00337 -0.01300 0.06386
0.06295 -0.02042 0.06570
0.30187 -0.04715 0.07231
0.77372 -0.09994 0.08537
1.68999 -0.20246 0.11074
-0.02715 0.04658 0.03732
0.03916 0.03916 0.03916
0.27808 0.01243 0.04577
0.74993 -0.04036 0.05883
1.66621 -0.14287 0.08420
-0.11286 0.26125 -0.05830
-0.04654 0.25383 -0.05647
0.19238 0.22710 -0.04985
0.66423 0.17431 -0.03679
1.58050 0.07180 -0.01143
-0.28211 0.68521 -0.24715
-0.21580 0.67779 -0.24531
0.02312 0.65106 -0.23870
0.49497 0.59827 -0.22564
1.41125 0.49576 -0.20028
-0.61079 1.50848 -0.61387
-0.54448 1.50106 -0.61204
-0.30555 1.47433 -0.60542
0.16630 1.42154 -0.59236
1.08257 1.31903 -0.56700
-0.01549 -0.05985 0.29397
0.05082 -0.06727 0.29580
0.28974 -0.09400 0.30242
0.76160 -0.14679 0.31548
1.67787 -0.24930 0.34084
-0.03928 -0.00027 0.26743
0.02703 -0.00769 0.26926
0.26596 -0.03442 0.27588
0.73781 -0.08721 0.28894
1.65408 -0.18972 0.31430
-0.12498 0.21440 0.17180
-0.05867 0.20698 0.17364
0.18025 0.18025 0.18025
0.65211 0.12746 0.19332
1.56838 0.02495 0.21868
-0.29424 0.63836 -0.01705
-0.22793 0.63094 -0.01521
0.01100 0.60421 -0.00860
0.48285 0.55142 0.00447
1.39912 0.44891 0.02983
-0.62291 1.46163 -0.38377
-0.55660 1.45422 -0.38193
-0.31768 1.42748 -0.37532
0.15417 1.37469 -0.36225
1.07045 1.27218 -0.33689
-0.03944 -0.15237 0.74840
0.02687 -0.15979 0.75024
0.26580 -0.18652 0.75685
0.73765 -0.23931 0.76992
1.65392 -0.34182 0.79528
-0.06322 -0.09279 0.72186
0.00309 -0.10021 0.72370
0.24201 -0.12694 0.73031
0.71386 -0.17973 0.74338
1.63014 -0.28224 0.76874
-0.14893 0.12188 0.62624
-0.08262 0.11446 0.62808
0.15631 0.08773 0.63469
0.62816 0.03494 0.64775
1.54443 -0.06757 0.67312
-0.31818 0.54584 0.43739
-0.25187 0.53842 0.43923
-0.01295 0.51169 0.44584
0.45890 0.45890 0.45890
1.37518 0.35639 0.48427
-0.64686 1.36911 0.07067
-0.58055 1.36170 0.07251
-0.34162 1.33496 0.07912
0.13023 1.28217 0.09218
1.04650 1.17966 0.11755
-0.08594 -0.33203 1.63086
-0.01963 -0.33945 1.63269
0.21930 -0.36618 1.63931
0.69115 -0.41897 1.65237
1.60742 -0.52148 1.67773
-0.10972 -0.27245 1.60432
-0.04341 -0.27987 1.60616
0.19551 -0.30660 1.61277
0.66736 -0.35939 1.62583
1.58364 -0.46190 1.65119
-0.19543 -0.05778 1.50870
-0.12912 -0.06520 1.51053
0.10981 -0.09193 1.51714
0.58166 -0.14472 1.53021
1.49793 -0.24723 1.55557
-0.36468 0.36618 1.31985
-0.29837 0.35876 1.32168
-0.05945 0.33203 1.32830
0.41240 0.27924 1.34136
1.32867 0.17673 1.36672
-0.69336 1.18945 0.95312
-0.62705 1.18203 0.95496
-0.38813 1.15530 0.96157
0.08373 1.10251 0.97464
1.00000 1.00000 1.00000
