GPLOG_Creative_EV0 - a9g8a0000004G5nAAE.cube
LUT_3D_SIZE 5
0 0 0
0.214954 0 0.0470588
0.621271 0 0.0590677
1 0 0.0442054
1 0 0.116777
0 0.17351 0
0.118212 0.129854 0
0.525887 0.059144 0
1 0 0.0513771
1 0 0.0814679
0 0.514931 0
0 0.517357 0
0.404089 0.435386 0
0.965759 0.320119 0
1 0 0
0 0.930343 0
0 0.94226 0
0 0.982177 0
0.829419 0.828 0
1 0.751232 0
0 0.988647 0
0 1 0
0 1 0
0 1 0
1 1 0
0 0 0.159121
0.218418 0 0.205524
0.624887 0 0.192035
0.979034 0 0.135164
1 0 0.204334
0 0.137087 0.141497
0.102098 0.102098 0.102098
0.536141 0.0225986 0.0950637
1 0 0.177371
1 0 0.177935
0 0.506691 0
0 0.509621 0
0.402304 0.427649 0
0.972168 0.304433 0
1 0 0.0358587
0 0.931517 0
0 0.943191 0
0 0.98349 0
0.829679 0.827817 0
1 0.74905 0
0 0.993866 0
0 1 0
0 1 0
0 1 0
1 1 0
0 0 0.508125
0 0 0.506279
0.55227 0 0.507042
0.948623 0 0.438254
1 0 0.436576
0 0 0.529641
0 0.0186465 0.540398
0.612589 0 0.572564
1 0 0.513375
1 0 0.426032
0 0.422751 0.435157
0 0.427436 0.442573
0.366079 0.366079 0.366079
1 0.186053 0.439246
1 0 0.386557
0 0.934203 0
0 0.945739 0
0 0.986297 0
0.828824 0.825833 0
1 0.736004 0
0 1 0
0 1 0
0 1 0
0 1 0
1 1 0
0 0 0.88481
0 0 0.865324
0 0 1
0.908492 0 0.807523
1 0 0.764965
0 0 0.887068
0 0 0.877821
0 0 0.990509
0.910109 0 0.811887
1 0 0.765545
0 0 0.897887
0 0.0188754 0.94725
0 0.0434424 0.988632
1 0 0.967086
1 0 0.773877
0 0.80618 0.901869
0 0.818402 0.91281
0 0.864027 0.950515
0.745296 0.745296 0.745296
1 0.585138 0.901442
0 1 0
0 1 0
0 1 0
0 1 0
1 1 0
0 0 1
0 0 1
0 0 1
0.731121 0 1
1 0 1
0 0 1
0 0 1
0 0 1
0.721462 0 1
1 0 1
0 0 1
0 0 1
0 0 1
0.673152 0 1
1 0 1
0 0 1
0 0 1
0 0 1
0.41915 0 1
1 0 1
0 0.970031 1
0 0.987793 1
0 1 1
0 1 1
0.999496 0.999496 0.999496
