GPLOG_Creative_EV0 - a9g8a0000004G5nAAE.cube
LUT_3D_SIZE 9
0 0 0
0.106355 0 0.0276036
0.214954 0 0.0470588
0.400885 0 0.0553597
0.621271 0 0.0590677
0.854261 0 0.063386
1 0 0.0442054
1 0 0.0208743
1 0 0.116777
0 0.0879377 0
0.0608835 0.0646982 0
0.151843 0.0548257 0
0.342168 0.0242618 0
0.612131 0 0.00502022
0.857069 0 0.0501259
1 0 0.0639506
1 0 0.0106966
1 0 0.105882
0 0.17351 0
0 0.160708 0
0.118212 0.129854 0
0.2907 0.105959 0
0.525887 0.059144 0
0.852049 0 0
1 0 0.0513771
1 0 0
1 0 0.0814679
0 0.320684 0
0 0.317815 0
0.020264 0.284642 0
0.226154 0.256443 0
0.481804 0.218235 0
0.75668 0.14284 0
1 0 0
1 0 0.0410468
1 0 0.0255589
0 0.514931 0
0 0.516411 0
0 0.517357 0
0.0607309 0.476921 0
0.404089 0.435386 0
0.693584 0.395743 0
0.965759 0.320119 0
1 0.014023 0
1 0 0
0 0.733211 0
0 0.736263 0
0 0.741894 0
0 0.749294 0
0.161944 0.689586 0
0.605005 0.631571 0
0.891798 0.598337 0
1 0.53727 0
1 0.0509346 0
0 0.930343 0
0 0.934173 0
0 0.94226 0
0 0.95761 0
0 0.982177 0
0.374395 0.887999 0
0.829419 0.828 0
1 0.810254 0
1 0.751232 0
0 1 0
0 1 0
0 1 0
0 1 0
0 1 0
0 1 0
0.624094 1 0
1 0.979492 0
1 0.960174 0
0 0.988647 0
0 0.995804 0
0 1 0
0 1 0
0 1 0
0 1 0
0 1 0
0.841459 1 0
1 1 0
0 0 0.0764935
0.109117 0 0.101823
0.218647 0 0.113268
0.40325 0 0.112428
0.622599 0 0.107851
0.854505 0 0.10457
0.98941 0 0.0624094
1 0 0.061265
1 0 0.147402
0 0.0706493 0.0747997
0.0519875 0.0519875 0.0519875
0.151141 0.0400092 0.0536049
0.371542 0 0.0820325
0.613901 0 0.0925002
0.85745 0 0.0973983
1 0 0.101213
1 0 0.0510109
1 0 0.137301
0 0.164477 0
0 0.153475 0
0.114244 0.121706 0
0.287785 0.0970321 0
0.52578 0.0456703 0
0.852369 0 0.0676738
1 0 0.0971695
1 0 0.0320897
1 0 0.115084
0 0.315343 0
0 0.312276 0
0.0164645 0.28011 0
0.224857 0.250828 0
0.481712 0.212085 0
0.757748 0.134691 0
1 0 0.00077821
1 0 0.083772
1 0 0.0639048
0 0.512444 0
0 0.513924 0
0 0.515129 0
0.0581521 0.475319 0
0.403616 0.433112 0
0.693919 0.392966 0
0.96788 0.315435 0
1 0.00515755 0
1 0 0
0 0.73257 0
0 0.735607 0
0 0.74136 0
0 0.748745 0
0.159548 0.689616 0
0.605264 0.630701 0
0.892439 0.597314 0
1 0.535424 0
1 0.0454108 0
0 0.930739 0
0 0.934554 0
0 0.942611 0
0 0.958022 0
0 0.98262 0
0.373465 0.888457 0
0.829587 0.828 0
1 0.81004 0
1 0.750576 0
0 1 0
0 1 0
0 1 0
0 1 0
0 1 0
0 1 0
0.623682 1 0
1 0.979522 0
1 0.960113 0
0 0.990402 0
0 0.997559 0
0 1 0
0 1 0
0 1 0
0 1 0
0 1 0
0.841398 1 0
1 1 0
0 0 0.159121
0 0 0.184558
0.218418 0 0.205524
0.406867 0 0.201205
0.624887 0 0.192035
0.854948 0 0.186236
0.979034 0 0.135164
1 0 0.137896
1 0 0.204334
0 0.0467536 0.165103
0.024094 0.0382239 0.142885
0.189227 0.00489815 0.180331
0.388464 0 0.182971
0.619394 0 0.180041
0.858991 0 0.179843
1 0 0.180667
1 0 0.129732
1 0 0.196124
0 0.137087 0.141497
0 0.128847 0.133455
0.102098 0.102098 0.102098
0.287144 0.0749065 0.093843
0.536141 0.0225986 0.0950637
0.856718 0 0.157534
1 0 0.177371
1 0 0.114015
1 0 0.177935
0 0.29691 0
0 0.294026 0
0 0.266361 0
0.213947 0.2336 0.0132906
0.475288 0.19205 0.0115663
0.756939 0.110277 0.0264286
1 0 0.147768
1 0 0.160891
1 0 0.136248
0 0.506691 0
0 0.508217 0
0 0.509621 0
0.0518349 0.471427 0
0.402304 0.427649 0
0.694286 0.386389 0
0.972168 0.304433 0
1 0 0.0823224
1 0 0.0358587
0 0.731106 0
0 0.734157 0
0 0.739849 0
0 0.747463 0
0.155535 0.689128 0
0.605615 0.629114 0
0.893477 0.594842 0
1 0.53138 0
1 0.0307927 0.0301366
0 0.931517 0
0 0.935332 0
0 0.943191 0
0 0.958801 0
0 0.98349 0
0.371267 0.889448 0
0.829679 0.827817 0
1 0.809567 0
1 0.74905 0
0 1 0
0 1 0
0 1 0
0 1 0
0 1 0
0 1 0
0.622873 1 0
1 0.979644 0
1 0.959976 0
0 0.993866 0
0 1 0
0 1 0
0 1 0
0 1 0
0 1 0
0 1 0
0.841184 1 0
1 1 0
0 0 0.316686
0 0 0.310399
0 0 0.364446
0.399023 0 0.37409
0.623743 0 0.358267
0.850629 0 0.339422
0.966018 0 0.267674
1 0 0.263127
1 0 0.2972
0 0 0.316472
0 0 0.328176
0.0193332 0.00474556 0.381872
0.396231 0 0.373678
0.624277 0 0.35462
0.859312 0 0.341207
0.99939 0 0.292317
1 0 0.258518
1 0 0.291752
0 0.0970932 0.319295
0 0.0933394 0.305837
0.0503395 0.0798657 0.272999
0.300969 0.0313725 0.289525
0.601236 0 0.323308
0.863676 0 0.329854
1 0 0.334203
1 0 0.250584
1 0 0.279973
0 0.254261 0.251881
0 0.25211 0.25211
0 0.229648 0.226062
0.201709 0.201709 0.201709
0.481788 0.151171 0.196002
0.768048 0.0676738 0.21294
1 0 0.319905
1 0 0.300175
1 0 0.253529
0 0.482918 0.00747692
0 0.484688 0.0106203
0 0.486717 0.0156252
0.0156863 0.455406 0
0.386511 0.40705 0.0459449
0.684092 0.36318 0.0582742
0.977005 0.268177 0.117311
1 0 0.311635
1 0 0.192401
0 0.727092 0
0 0.730114 0
0 0.735775 0
0 0.74342 0
0.144869 0.688319 0
0.605478 0.625116 0
0.894682 0.589364 0
1 0.52134 0
1 0 0.221729
0 0.932677 0
0 0.936522 0
0 0.944656 0
0 0.960052 0
0 0.984817 0
0.366979 0.891569 0
0.829923 0.827695 0
1 0.808331 0
1 0.745525 0
0 1 0
0 1 0
0 1 0
0 1 0
0 1 0
0 1 0
0.620829 1 0
1 0.979812 0
1 0.95964 0
0 1 0
0 1 0
0 1 0
0 1 0
0 1 0
0 1 0
0 1 0
0.840528 1 0
1 1 0
0 0 0.508125
0 0 0.492119
0 0 0.506279
0.0536965 0 0.607843
0.55227 0 0.507042
0.77879 0 0.471977
0.948623 0 0.438254
1 0 0.427207
1 0 0.436576
0 0 0.506935
0 0 0.500633
0 0 0.498955
0.0477455 0 0.605936
0.601114 0 0.557321
0.832105 0 0.52311
0.958038 0 0.44358
1 0 0.425635
1 0 0.433097
0 0 0.529641
0 0.0125734 0.545174
0 0.0186465 0.540398
0.0797894 0.00805676 0.623331
0.612589 0 0.572564
0.859709 0 0.546487
1 0 0.513375
1 0 0.423468
1 0 0.426032
0 0.173129 0.529778
0 0.172045 0.525048
0 0.165301 0.499611
0.10724 0.149554 0.456321
0.498207 0.0629282 0.475654
0.849042 0 0.529427
1 0 0.543908
1 0 0.436515
1 0 0.411627
0 0.422751 0.435157
0 0.424628 0.438331
0 0.427436 0.442573
0 0.403143 0.407843
0.366079 0.366079 0.366079
0.694667 0.309773 0.372915
1 0.186053 0.439246
1 0 0.564874
1 0 0.386557
0 0.698726 0.0565957
0 0.701946 0.0602274
0 0.707912 0.0671244
0 0.716854 0.0780041
0.0832532 0.675395 0.0391852
0.582986 0.601923 0.107637
0.875975 0.562539 0.152941
1 0.479026 0.27097
1 0 0.553521
0 0.934203 0
0 0.937972 0
0 0.945739 0
0 0.961196 0
0 0.986297 0
0.353964 0.895445 0
0.828824 0.825833 0
1 0.804028 0
1 0.736004 0
0 1 0
0 1 0
0 1 0
0 1 0
0 1 0
0 1 0
0.616464 1 0
1 0.979599 0
1 0.958282 0
0 1 0
0 1 0
0 1 0
0 1 0
0 1 0
0 1 0
0 1 0
0.838697 1 0
1 1 0
0 0 0.713664
0 0 0.708263
0 0 0.689052
0 0 0.748287
0.274998 0 0.841901
0.741604 0 0.671214
0.928542 0 0.63827
1 0 0.623453
1 0 0.612116
0 0 0.713726
0 0 0.710216
0 0 0.687251
0 0 0.738201
0.261372 0 0.843778
0.743618 0 0.674311
0.931609 0 0.640116
1 0 0.623682
1 0 0.610941
0 0 0.712383
0 0 0.711727
0 0 0.689891
0 0 0.720073
0.235325 0 0.851102
0.754665 0 0.687739
0.94136 0 0.647486
1 0 0.624323
1 0 0.608774
0 0.00550851 0.74284
0 0.0205997 0.759655
0 0.0281987 0.771679
0 0.036286 0.763165
0.249088 0 0.913069
0.849515 0 0.788586
1 0 0.750042
1 0 0.632181
1 0 0.604547
0 0.308431 0.762982
0 0.310124 0.764172
0 0.312779 0.764691
0 0.301167 0.717021
0.243839 0.292302 0.661357
0.737179 0.167559 0.706294
1 0 0.798657
1 0 0.783093
1 0 0.600839
0 0.618692 0.660243
0 0.622065 0.663828
0 0.628931 0.670695
0 0.639277 0.681025
0.0454566 0.610361 0.628061
0.552361 0.552361 0.552361
0.880644 0.499825 0.570031
1 0.379599 0.683635
1 0 0.811231
0 0.899535 0.212314
0 0.903624 0.216571
0 0.911528 0.224704
0 0.927398 0.24033
0 0.953689 0.264179
0.249836 0.887892 0.179995
0.786175 0.795819 0.249104
1 0.767346 0.321141
1 0.682826 0.459205
0 1 0
0 1 0
0 1 0
0 1 0
0 1 0
0 1 0
0.60293 1 0
1 0.977478 0
1 0.953628 0
0 1 0
0 1 0
0 1 0
0 1 0
0 1 0
0 1 0
0 1 0
0.834195 1 0
1 1 0
0 0 0.88481
0 0 0.88159
0 0 0.865324
0 0 0.878996
0 0 1
0.610437 0 0.939345
0.908492 0 0.807523
1 0 0.787427
1 0 0.764965
0 0 0.88571
0 0 0.882994
0 0 0.871046
0 0 0.872007
0 0 1
0.605112 0 0.94284
0.908873 0 0.808637
1 0 0.788144
1 0 0.765133
0 0 0.887068
0 0 0.885298
0 0 0.877821
0 0 0.859937
0 0 0.990509
0.592279 0 0.951629
0.910109 0 0.811887
1 0 0.789944
1 0 0.765545
0 0 0.887984
0 0 0.887846
0 0 0.885817
0 0 0.852461
0 0 0.959289
0.566003 0 0.974548
0.916579 0 0.821668
1 0 0.795727
1 0 0.767239
0 0 0.897887
0 0 0.905577
0 0.0188754 0.94725
0 0.0375982 0.973144
0 0.0434424 0.988632
0.596719 0 1
1 0 0.967086
1 0 0.826749
1 0 0.773877
0 0.479973 0.981781
0 0.483833 0.985672
0 0.491814 0.993454
0 0.505837 1
0.0129549 0.493507 0.94905
0.424765 0.473243 0.843259
0.941451 0.344335 0.906874
1 0.0674907 1
1 0 0.862135
0 0.80618 0.901869
0 0.810162 0.905455
0 0.818402 0.91281
0 0.835096 0.927367
0 0.864027 0.950515
0.174701 0.824308 0.856657
0.745296 0.745296 0.745296
0.998535 0.706691 0.773449
1 0.585138 0.901442
0 1 0.490227
0 1 0.494545
0 1 0.503136
0 1 0.52018
0 1 0.551461
0 1 0.58883
0.45658 1 0.3823
0.927489 0.929351 0.434684
1 0.900038 0.496284
0 1 0
0 1 0
0 1 0
0 1 0
0 1 0
0 1 0
0 1 0
0.820005 1 0
1 1 0
0 0 1
0 0 1
0 0 0.996323
0 0 0.979004
0 0 1
0.353246 0 1
0.858549 0 0.967697
1 0 0.904677
1 0 0.879698
0 0 1
0 0 1
0 0 0.997818
0 0 0.976577
0 0 1
0.340948 0 1
0.857298 0 0.968734
1 0 0.905119
1 0 0.879988
0 0 1
0 0 1
0 0 1
0 0 0.980911
0 0 1
0.314977 0 1
0.854734 0 0.971038
1 0 0.906172
1 0 0.88069
0 0 1
0 0 1
0 0 1
0 0 0.992279
0 0 1
0.256901 0 1
0.849409 0 0.97702
1 0 0.908827
1 0 0.882368
0 0 1
0 0 1
0 0 1
0 0 1
0 0 0.985672
0.129854 0 1
0.839643 0 0.993515
1 0 0.917571
1 0 0.887358
0 0 1
0 0 1
0 0 1
0 0 1
0 0.0384833 1
0.113329 0.00613413 1
0.967575 0 1
1 0 0.981231
1 0 0.910155
0 0.657694 1
0 0.662333 1
0 0.671778 1
0 0.690089 1
0 0.723644 1
0.068864 0.719676 1
0.635706 0.673762 0.970581
1 0.563485 1
1 0.170565 1
0 0.948623 1
0 0.953185 1
0 0.962921 1
0 0.982284 1
0 1 1
0 1 1
0.373281 0.97435 1
0.886992 0.886992 0.886992
1 0.852232 0.895277
0 1 0.701213
0 1 0.70634
0 1 0.717433
0 1 0.739513
0 1 0.782879
0 1 0.854643
0 1 0.915038
0.642908 1 0.565194
1 1 0.629999
0 0 1
0 0 1
0 0 1
0 0 1
0 0 1
0 0 1
0.731121 0 1
0.999451 0 1
1 0 1
0 0 1
0 0 1
0 0 1
0 0 1
0 0 1
0 0 1
0.728084 0 1
0.998871 0 1
1 0 1
0 0 1
0 0 1
0 0 1
0 0 1
0 0 1
0 0 1
0.721462 0 1
0.997681 0 1
1 0 1
0 0 1
0 0 1
0 0 1
0 0 1
0 0 1
0 0 1
0.707271 0 1
0.995239 0 1
1 0 1
0 0 1
0 0 1
0 0 1
0 0 1
0 0 1
0 0 1
0.673152 0 1
0.990219 0 1
1 0 1
0 0 1
0 0 1
0 0 1
0 0 1
0 0 1
0 0 1
0.580758 0 1
0.981399 0 1
1 0 1
0 0 1
0 0 1
0 0 1
0 0 1
0 0 1
0 0.00674449 1
0.41915 0 1
1 0 1
1 0 1
0 0.764569 1
0 0.77026 1
0 0.781933 1
0 0.805142 1
0 0.851057 1
0 0.932586 1
0.196185 0.921324 1
0.80621 0.837476 1
1 0.745525 1
0 0.970031 1
0 0.975677 1
0 0.987793 1
0 1 1
0 1 1
0 1 1
0 1 1
0.56318 1 1
0.999496 0.999496 0.999496
