GPLOG_Creative_EV0 - a9g8a0000004G5nAAE.cube
LUT_3D_SIZE 33
0 0 0
0.0416571 0 0.0103914
0.0643778 0 0.016495
0.0853742 0 0.0222019
0.106355 0 0.0276036
0.129015 0 0.0329595
0.153552 0 0.038056
0.181643 0 0.0425116
0.214954 0 0.0470588
0.25507 0 0.0506294
0.300023 0 0.0530861
0.348959 0 0.0545357
0.400885 0 0.0553597
0.454963 0 0.0560464
0.510369 0 0.0565499
0.565469 0 0.0579843
0.621271 0 0.0590677
0.679347 0 0.0603799
0.738491 0 0.0612497
0.797299 0 0.0622416
0.854261 0 0.063386
0.907851 0 0.0646372
0.955139 0 0.0656443
0.994446 0 0.0642863
1 0 0.0442054
1 0 0.00787366
1 0 0.00495918
1 0 0.00984207
1 0 0.0208743
1 0 0.0383459
1 0 0.0598917
1 0 0.0864271
1 0 0.116777
0 0.0347906 0
0.0239719 0.0254826 0
0.0431525 0.0235752 0
0.0612345 0.0222629 0
0.0813458 0.0205539 0
0.105867 0.0178836 0
0.142092 0.010956 0.00764477
0.1729 0.00737011 0.0152132
0.207309 0.00306706 0.0222934
0.247578 0 0.0343328
0.294499 0 0.0406195
0.344137 0 0.0440986
0.396872 0 0.0467536
0.451957 0 0.0484779
0.507774 0 0.0503395
0.563607 0 0.0524605
0.620157 0 0.0549477
0.678553 0 0.0565347
0.73814 0 0.0583047
0.797696 0 0.0599527
0.855161 0 0.0615854
0.909209 0 0.063447
0.957122 0 0.0651255
0.997711 0 0.0650492
1 0 0.0546731
1 0 0.00895705
1 0 0.00447089
1 0 0.00856031
1 0 0.0188754
1 0 0.0363012
1 0 0.0578622
1 0 0.0841993
1 0 0.114931
0 0.0534829 0
0.0144656 0.0435492 0
0.0373693 0.0394141 0
0.0545663 0.0375219 0
0.071931 0.0358129 0
0.0914626 0.034287 0
0.114015 0.0320897 0
0.14197 0.0291447 0
0.178027 0.0238956 0
0.233967 0.0127718 0.00248722
0.284825 0.00436408 0.0101778
0.336675 0 0.0150301
0.391318 0 0.0222019
0.447181 0 0.0351263
0.504341 0 0.0402991
0.560906 0 0.044358
0.618235 0 0.0484474
0.677531 0 0.051545
0.737789 0 0.054139
0.797787 0 0.0566415
0.855879 0 0.0590524
0.910369 0 0.0616922
0.958999 0 0.06421
1 0 0.0653391
1 0 0.0596628
1 0 0.011017
1 0 0.00370794
1 0 0.00674449
1 0 0.016495
1 0 0.0334936
1 0 0.0550546
1 0 0.0817578
1 0 0.112413
0 0.0706798 0
0 0.0665904 0
0.0302434 0.0551766 0
0.0490578 0.0519265 0
0.0666056 0.0498817 0
0.0851148 0.0480507 0
0.105516 0.0460365 0
0.130602 0.0436713 0
0.161105 0.0401617 0
0.199969 0.0352789 0
0.249439 0.0274205 0
0.319951 0.0115511 0
0.381079 0 0
0.44033 0 0.00410468
0.49926 0 0.0101778
0.557382 0 0.0285801
0.615625 0 0.0375372
0.675715 0 0.0434272
0.736828 0 0.0479591
0.797589 0 0.0517586
0.856519 0 0.0553445
0.91162 0 0.0588998
0.961013 0 0.0623636
1 0 0.0647746
1 0 0.0628367
1 0 0.0152895
1 0 0.00335698
1 0 0.00471504
1 0 0.013962
1 0 0.0298161
1 0 0.051957
1 0 0.0784314
1 0 0.109316
0 0.0879377 0
0 0.0850233 0
0.0169375 0.0731823 0
0.042359 0.0674601 0
0.0608835 0.0646982 0
0.0793011 0.0625315 0
0.0994888 0.0601358 0
0.123156 0.0577554 0
0.151843 0.0548257 0
0.187991 0.050309 0
0.232776 0.0441444 0
0.283665 0.0358892 0
0.342168 0.0242618 0
0.424521 0.00350958 0
0.490333 0 0
0.551797 0 0
0.612131 0 0.00502022
0.673259 0 0.0274968
0.735271 0 0.037705
0.797055 0 0.0444343
0.857069 0 0.0501259
0.91284 0 0.0550698
0.963134 0 0.0598459
1 0 0.0636759
1 0 0.0639506
1 0 0.032105
1 0 0.00321965
1 0 0.00276188
1 0 0.0106966
1 0 0.0258488
1 0 0.0478523
1 0 0.0747082
1 0 0.105882
0 0.10605 0
0 0.103517 0
0 0.0988174 0
0.0320592 0.0852827 0
0.0537881 0.0811475 0
0.0732586 0.0783093 0
0.0935836 0.0755322 0
0.11664 0.0729686 0
0.144015 0.0699321 0
0.178332 0.0658274 0
0.221637 0.0601511 0
0.270314 0.052842 0
0.32401 0.0432288 0
0.383215 0.0315862 0
0.454063 0.0145571 0
0.540124 0 0
0.604974 0 0
0.669291 0 0
0.733166 0 0.00430304
0.795987 0 0.0311437
0.857176 0 0.0414893
0.914031 0 0.0491188
0.965377 0 0.0558328
1 0 0.0613565
1 0 0.0641337
1 0 0.0570687
1 0 0.00440986
1 0 0.000717174
1 0 0.007187
1 0 0.0214084
1 0 0.043183
1 0 0.0698711
1 0 0.101472
0 0.125628 0
0 0.12372 0
0 0.120531 0
0.00846876 0.108827 0
0.0435492 0.100298 0
0.0653697 0.0960555 0
0.0864576 0.09308 0
0.109834 0.0901808 0
0.136522 0.0868238 0
0.169802 0.0829175 0
0.211551 0.0775921 0
0.259602 0.0706798 0
0.312093 0.0617227 0
0.368765 0.0511025 0
0.428443 0.0388342 0
0.493629 0.0237583 0
0.587671 0 0
0.661234 0 0
0.729107 0 0
0.794461 0 0
0.856687 0 0.0220188
0.915068 0 0.0390784
0.967788 0 0.0492714
1 0 0.0571908
1 0 0.0627298
1 0 0.061799
1 0 0.00860609
1 0 0
1 0 0.00315862
1 0 0.0161746
1 0 0.0373846
1 0 0.0642252
1 0 0.0960708
0 0.147967 0
0 0.146349 0
0 0.143755 0
0 0.139239 0
0.0257267 0.123766 0
0.0544594 0.117464 0
0.0776226 0.113573 0
0.101335 0.109972 0
0.128496 0.106538 0
0.160769 0.102373 0
0.202014 0.0972915 0
0.249073 0.090547 0
0.301411 0.0822614 0
0.357488 0.0721294 0
0.415869 0.0606546 0
0.476387 0.0476692 0
0.540429 0.0322728 0
0.636027 0.00343328 0
0.719753 0 0
0.790249 0 0
0.85594 0 0
0.916091 0 0.00114443
0.969833 0 0.0369116
1 0 0.0501411
1 0 0.0588235
1 0 0.0627604
1 0 0.0413062
1 0 0
1 0 0
1 0 0.0100404
1 0 0.0303502
1 0 0.0572824
1 0 0.0895247
0 0.17351 0
0 0.172137 0
0 0.170153 0
0 0.167041 0
0 0.160708 0
0.0364233 0.143923 0
0.0649882 0.138094 0
0.0908064 0.133898 0
0.118212 0.129854 0
0.150713 0.12575 0
0.190936 0.120363 0
0.238483 0.113817 0
0.2907 0.105959 0
0.346746 0.0962539 0
0.4056 0.0853437 0
0.465003 0.0729381 0
0.525887 0.059144 0
0.591928 0.0421912 0
0.67068 0.0184329 0
0.778012 0 0
0.852049 0 0
0.916182 0 0
0.972702 0 0
1 0 0.0350652
1 0 0.0513771
1 0 0.0599985
1 0 0.0580453
1 0 0
1 0 0
1 0 0.00302129
1 0 0.0212406
1 0 0.0488136
1 0 0.0814679
0 0.203876 0
0 0.202686 0
0 0.201053 0
0 0.198672 0
0 0.194583 0
0 0.183688 0
0.0449683 0.169223 0
0.0752575 0.163348 0
0.104875 0.158541 0
0.13785 0.154147 0
0.177905 0.148714 0
0.226352 0.142168 0
0.279377 0.134325 0
0.335897 0.124849 0
0.394903 0.114137 0
0.455238 0.10222 0
0.515862 0.0890211 0
0.579293 0.0730755 0
0.647334 0.0540169 0
0.723278 0.0294804 0
0.838392 0 0
0.913146 0 0
0.973831 0 0
1 0 0
1 0 0.0324865
1 0 0.0525063
1 0 0.0590066
1 0 0.00924697
1 0 0
1 0 0
1 0 0.0112459
1 0 0.0386358
1 0 0.0714733
0 0.239994 0
0 0.239017 0
0 0.237598 0
0 0.235874 0
0 0.233234 0
0 0.228626 0
0.00910964 0.21059 0
0.0522927 0.201022 0
0.0863813 0.195056 0
0.121233 0.189624 0
0.161486 0.1841 0
0.211597 0.177157 0
0.265812 0.169085 0
0.323247 0.15967 0
0.383368 0.149279 0
0.444633 0.137346 0
0.505806 0.124483 0
0.569757 0.109041 0
0.63624 0.0907912 0
0.705257 0.0692607 0
0.779889 0.0426642 0
0.897719 0 0
0.972229 0 0
1 0 0
1 0 0
1 0 0.0257267
1 0 0.05243
1 0 0.0521553
1 0 0
1 0 0
1 0 9.15541e-05
1 0 0.0257572
1 0 0.0593881
0 0.278798 0
0 0.278157 0
0 0.277256 0
0 0.276005 0
0 0.27393 0
0 0.271046 0
0 0.26566 0
0.01561 0.245365 0
0.0594339 0.236789 0
0.0985275 0.230381 0
0.140841 0.224826 0
0.191669 0.218479 0
0.248417 0.211093 0
0.308339 0.202213 0
0.369955 0.192157 0
0.432517 0.181018 0
0.49453 0.167712 0
0.559365 0.152667 0
0.626993 0.134691 0
0.695842 0.113634 0
0.765332 0.0889296 0
0.837293 0.0592355 0
0.955093 0.00627146 0
1 0 0
1 0 0
1 0 0
1 0 0.00666819
1 0 0.049485
1 0 0
1 0 0
1 0 0
1 0 0.010132
1 0 0.0443275
0 0.320684 0
0 0.320287 0
0 0.319722 0
0 0.31899 0
0 0.317815 0
0 0.31577 0
0 0.312764 0
0 0.306264 0
0.020264 0.284642 0
0.067216 0.276478 0
0.113558 0.269947 0
0.165316 0.263554 0
0.226154 0.256443 0
0.289326 0.248325 0
0.35375 0.23917 0
0.418341 0.229129 0
0.481804 0.218235 0
0.547127 0.205386 0
0.615427 0.188693 0
0.685725 0.167437 0
0.75668 0.14284 0
0.825711 0.114229 0
0.894652 0.0804913 0
1 0.021561 0
1 0 0
1 0 0
1 0 0
1 0 0
1 0 0.0410468
1 0 0
1 0 0
1 0 0
1 0 0.0255589
0 0.365835 0
0 0.365499 0
0 0.365225 0
0 0.364813 0
0 0.364172 0
0 0.362936 0
0 0.361273 0
0 0.358236 0
0 0.350423 0
0.0252842 0.327993 0
0.0778973 0.320348 0
0.133211 0.313237 0
0.197284 0.305791 0
0.264942 0.297948 0
0.333257 0.289372 0
0.401175 0.280095 0
0.467002 0.270436 0
0.532815 0.259495 0
0.601602 0.246143 0
0.672847 0.229328 0
0.744884 0.207874 0
0.816266 0.1794 0
0.884703 0.146059 0
0.950591 0.106889 0
1 0.0413825 0
1 0 0
1 0 0
1 0 0
1 0 0
1 0 0
1 0 0
1 0 0
1 0 0.00222782
0 0.413352 0
0 0.413397 0
0 0.413367 0
0 0.413306 0
0 0.413153 0
0 0.412619 0
0 0.411933 0
0 0.4103 0
0 0.407309 0
0 0.397543 0
0.0329747 0.375296 0
0.09308 0.36733 0
0.160204 0.359365 0
0.234867 0.351064 0
0.308064 0.34226 0
0.380118 0.333425 0
0.449348 0.324437 0
0.51667 0.314916 0
0.585489 0.303563 0
0.656596 0.289967 0
0.728679 0.272847 0
0.800778 0.251545 0
0.871824 0.223651 0
0.940139 0.184894 0
1 0.138705 0
1 0.0671092 0
1 0 0
1 0 0
1 0 0
1 0 0
1 0 0
1 0 0
1 0 0
0 0.463279 0
0 0.463493 0
0 0.463722 0
0 0.463737 0
0 0.464012 0
0 0.464164 0
0 0.463996 0
0 0.463569 0
0 0.462242 0
0 0.459327 0
0 0.44538 0
0.0446479 0.425406 0
0.114565 0.416678 0
0.195712 0.407324 0
0.277287 0.397818 0
0.354665 0.388434 0
0.428611 0.379614 0
0.498375 0.370962 0
0.568734 0.360937 0
0.639551 0.349325 0
0.710979 0.3355 0
0.782193 0.319097 0
0.852338 0.298421 0
0.921599 0.270756 0
0.990845 0.231235 0
1 0.175708 0
1 0.101488 0
1 0.00285344 0
1 0 0
1 0 0
1 0 0
1 0 0
1 0 0
0 0.514931 0
0 0.515114 0
0 0.51545 0
0 0.515892 0
0 0.516411 0
0 0.51667 0
0 0.517159 0
0 0.517464 0
0 0.517357 0
0 0.516426 0
0 0.513344 0
0 0.491341 0
0.0607309 0.476921 0
0.14342 0.466896 0
0.237034 0.455665 0
0.323674 0.444877 0
0.404089 0.435386 0
0.477928 0.426886 0
0.550088 0.417746 0
0.622156 0.407446 0
0.693584 0.395743 0
0.763577 0.382345 0
0.831907 0.36672 0
0.898528 0.347036 0
0.965759 0.320119 0
1 0.280476 0
1 0.217914 0
1 0.132937 0
1 0.014023 0
1 0 0
1 0 0
1 0 0
1 0 0
0 0.568276 0
0 0.568734 0
0 0.569268 0
0 0.569848 0
0 0.570336 0
0 0.571145 0
0 0.571756 0
0 0.572625 0
0 0.573159 0
0 0.573632 0
0 0.573068 0
0 0.569909 0
0 0.544259 0
0.0796063 0.530053 0
0.179507 0.51751 0
0.281468 0.504173 0
0.371832 0.492485 0
0.452964 0.482841 0
0.528664 0.473716 0
0.602701 0.463691 0
0.675776 0.453147 0
0.746471 0.442145 0
0.813352 0.429892 0
0.877089 0.415412 0
0.939788 0.396963 0
1 0.371084 0
1 0.331304 0
1 0.264698 0
1 0.16585 0
1 0.0252689 0
1 0 0
1 0 0
1 0 0
0 0.623209 0
0 0.623728 0
0 0.62414 0
0 0.624857 0
0 0.625742 0
0 0.626474 0
0 0.627588 0
0 0.628672 0
0 0.629862 0
0 0.630838 0
0 0.631495 0
0 0.63122 0
0 0.627985 0
0 0.599023 0
0.10103 0.583764 0
0.218341 0.567651 0
0.326101 0.552148 0
0.419135 0.54023 0
0.500786 0.530816 0
0.579599 0.521111 0
0.656107 0.511437 0
0.729397 0.501442 0
0.798062 0.491188 0
0.861906 0.480064 0
0.922225 0.467109 0
0.980179 0.449912 0
1 0.424826 0
1 0.384848 0
1 0.315404 0
1 0.199954 0
1 0.0352178 0
1 0 0
1 0 0
0 0.678294 0
0 0.678889 0
0 0.679591 0
0 0.6804 0
0 0.681147 0
0 0.682246 0
0 0.683558 0
0 0.684825 0
0 0.686503 0
0 0.687968 0
0 0.689418 0
0 0.690501 0
0 0.69044 0
0 0.686839 0
0.00231937 0.654215 0
0.127047 0.63653 0
0.260212 0.617288 0
0.373114 0.601343 0
0.466712 0.590234 0
0.551629 0.580362 0
0.632959 0.570962 0
0.709834 0.561669 0
0.781262 0.552438 0
0.84654 0.543465 0
0.907195 0.533776 0
0.964324 0.521477 0
1 0.505058 0
1 0.480674 0
1 0.44097 0
1 0.368688 0
1 0.234684 0
1 0.0441749 0
1 0 0
0 0.733211 0
0 0.733852 0
0 0.734585 0
0 0.735454 0
0 0.736263 0
0 0.737484 0
0 0.738827 0
0 0.740276 0
0 0.741894 0
0 0.743969 0
0 0.745968 0
0 0.747845 0
0 0.749294 0
0 0.749401 0
0 0.745785 0
0.0146029 0.710048 0
0.161944 0.689586 0
0.306935 0.66775 0
0.422461 0.652354 0
0.517189 0.641321 0
0.605005 0.631571 0
0.687007 0.622171 0
0.7626 0.613703 0
0.830381 0.606043 0
0.891798 0.598337 0
0.948623 0.589487 0
1 0.578012 0
1 0.561868 0
1 0.53727 0
1 0.497642 0
1 0.423758 0
1 0.272175 0
1 0.0509346 0
0 0.786572 0
0 0.787213 0
0 0.787991 0
0 0.788769 0
0 0.789731 0
0 0.791028 0
0 0.792523 0
0 0.794018 0
0 0.796002 0
0 0.798016 0
0 0.800305 0
0 0.80293 0
0 0.805646 0
0 0.808118 0
0 0.809201 0
0 0.80592 0
0.032105 0.766827 0
0.204807 0.742107 0
0.358251 0.718853 0
0.473594 0.703929 0
0.571313 0.692576 0
0.660578 0.682811 0
0.741283 0.674022 0
0.813123 0.666758 0
0.876265 0.660456 0
0.933654 0.653864 0
0.986633 0.646082 0
1 0.635172 0
1 0.619089 0
1 0.594232 0
1 0.553521 0
1 0.480034 0
1 0.3131 0
0 0.8374 0
0 0.838041 0
0 0.838849 0
0 0.83978 0
0 0.840894 0
0 0.841978 0
0 0.84358 0
0 0.845228 0
0 0.847456 0
0 0.849805 0
0 0.852735 0
0 0.856016 0
0 0.859419 0
0 0.863279 0
0 0.866743 0
0 0.869261 0
0 0.866346 0
0.0557107 0.823377 0
0.255528 0.793362 0
0.413382 0.769039 0
0.529076 0.754498 0
0.629129 0.742992 0
0.717525 0.733227 0
0.794812 0.725689 0
0.861204 0.719631 0
0.919402 0.714397 0
0.972015 0.708934 0
1 0.701793 0
1 0.691447 0
1 0.675273 0
1 0.649409 0
1 0.608469 0
1 0.535851 0
0 0.88542 0
0 0.886137 0
0 0.886992 0
0 0.888029 0
0 0.889021 0
0 0.890486 0
0 0.892241 0
0 0.894057 0
0 0.896544 0
0 0.899184 0
0 0.902373 0
0 0.906065 0
0 0.910369 0
0 0.915206 0
0 0.92015 0
0 0.925017 0
0 0.928557 0
0 0.926131 0
0.0864271 0.878096 0
0.312551 0.842023 0
0.47129 0.81799 0
0.588922 0.802899 0
0.689158 0.790921 0
0.774563 0.782055 0
0.845823 0.775479 0
0.906706 0.770687 0
0.959777 0.766506 0
1 0.761654 0
1 0.754833 0
1 0.744503 0
1 0.727565 0
1 0.702281 0
1 0.661448 0
0 0.930343 0
0 0.931105 0
0 0.932021 0
0 0.933074 0
0 0.934173 0
0 0.935729 0
0 0.937606 0
0 0.93959 0
0 0.94226 0
0 0.945174 0
0 0.948638 0
0 0.952773 0
0 0.95761 0
0 0.963165 0
0 0.969146 0
0 0.975662 0
0 0.982177 0
0 0.986847 0
0 0.98471 0
0.125017 0.930343 0
0.374395 0.887999 0
0.531563 0.864012 0
0.651347 0.848066 0
0.749523 0.836072 0
0.829419 0.828 0
0.894499 0.822354 0
0.94931 0.818479 0
0.997726 0.814878 0
1 0.810254 0
1 0.803388 0
1 0.792569 0
1 0.776364 0
1 0.751232 0
0 0.97142 0
0 0.972015 0
0 0.972915 0
0 0.974075 0
0 0.975464 0
0 0.977127 0
0 0.978866 0
0 0.981247 0
0 0.983841 0
0 0.987121 0
0 0.990951 0
0 0.995422 0
0 1 0
0 1 0
0 1 0
0 1 0
0 1 0
0 1 0
0 1 0
0 1 0
0.170871 0.978744 0
0.437873 0.930617 0
0.594736 0.905837 0
0.713924 0.88922 0
0.807523 0.877577 0
0.880613 0.870497 0
0.939727 0.865919 0
0.989471 0.862654 0
1 0.85922 0
1 0.854505 0
1 0.847135 0
1 0.836316 0
1 0.820157 0
0 1 0
0 1 0
0 1 0
0 1 0
0 1 0
0 1 0
0 1 0
0 1 0
0 1 0
0 1 0
0 1 0
0 1 0
0 1 0
0 1 0
0 1 0
0 1 0
0 1 0
0 1 0
0 1 0
0 1 0
0 1 0
0.223819 1 0
0.500923 0.969253 0
0.658396 0.943526 0
0.775204 0.926329 0
0.862242 0.915877 0
0.92842 0.909773 0
0.981949 0.905882 0
1 0.902846 0
1 0.899245 0
1 0.893935 0
1 0.885954 0
1 0.875212 0
0 1 0
0 1 0
0 1 0
0 1 0
0 1 0
0 1 0
0 1 0
0 1 0
0 1 0
