crates/vr180-gui/assets/insta360_x6_ilog_to_rec709.cube
# Version 2.0
# Create Date 2026.05.20
# Output: Rec709 / BT1886
TITLE "Insta360 I-Log to Rec709 Rendering LUT"
LUT_3D_SIZE 5
0.0005035477 0.0013122759 0.0011749447
0.0842450599 0.0000457771 0.0096131838
0.5373922332 0.1687190051 0.0001525902
1.0000000000 0.4973601892 0.4046463722
1.0000000000 0.8826123445 0.8592050050
0.0000228885 0.0944991226 0.0550240330
0.1223277638 0.1216868849 0.0000762951
0.5574387732 0.2014496071 0.0001602197
1.0000000000 0.5261577783 0.4376478218
1.0000000000 0.9056801709 0.8866292821
0.0001678492 0.5003433280 0.3142595560
0.0000724804 0.5248455024 0.2990157931
0.5448462654 0.5400930800 0.1110246433
1.0000000000 0.5659342336 0.4659533074
1.0000000000 0.9044022278 0.8850690471
0.0004921035 0.9809605554 0.5567483024
0.0000000000 0.9871671626 0.5587853819
0.0680895705 0.9939993896 0.5294079500
0.9443007553 0.9427252613 0.3548867018
1.0000000000 0.9213397421 0.9030861372
0.9411917296 1.0000000000 0.9487296864
0.9497978180 1.0000000000 0.9560807202
0.9562371252 1.0000000000 0.9616083009
0.9622148470 1.0000000000 0.9658121614
1.0000000000 1.0000000000 0.9259784848
0.0000114443 0.0165941863 0.0480811780
0.1063744564 0.0000114443 0.0868581674
0.5682230869 0.0783703365 0.1341763943
1.0000000000 0.4990348669 0.4087853819
1.0000000000 0.8846227207 0.8615854124
0.0000915541 0.1076066224 0.1046883345
0.1309452964 0.1309452964 0.1309452964
0.6052948806 0.1006713970 0.1312619211
1.0000000000 0.5303921569 0.4445639734
1.0000000000 0.9080682078 0.8894789044
0.0002670329 0.5047226673 0.3251735714
0.0002021820 0.5297932403 0.3131342031
0.5492103456 0.5435988403 0.1375829709
1.0000000000 0.5685091936 0.4705539025
1.0000000000 0.9057717250 0.8867132067
0.0001716640 0.9830243381 0.5577668421
0.0001449607 0.9892843519 0.5599145495
0.0874456397 0.9957961395 0.5314641032
0.9467154955 0.9452582589 0.3579880980
1.0000000000 0.9246929122 0.9071602960
0.9441710536 1.0000000000 0.9512550546
0.9525749599 1.0000000000 0.9584649424
0.9585679408 1.0000000000 0.9636224918
0.9637369345 1.0000000000 0.9671663996
1.0000000000 1.0000000000 0.9233882658
0.0651026169 0.1480506600 0.4805142290
0.1147707332 0.1177882048 0.5013389792
0.5905775540 0.0896696422 0.4824979019
1.0000000000 0.4941214618 0.4857404440
1.0000000000 0.8848859388 0.8622034028
0.0723620966 0.1851224537 0.4768520638
0.0908216983 0.1533951324 0.5204394598
0.6262951095 0.1124284733 0.5123407340
1.0000000000 0.5267299916 0.5135957885
1.0000000000 0.9095407034 0.8914587625
0.0000000000 0.5235523003 0.5100251774
0.0000877394 0.5398260472 0.5260891127
0.5402075227 0.5402075227 0.5402075227
1.0000000000 0.5515220874 0.5341611353
1.0000000000 0.9099412528 0.8942931258
0.0000000000 0.9820592050 0.5839513237
0.0003547723 0.9884412909 0.5861943999
0.0979133288 0.9960135805 0.5604562448
0.9429694057 0.9437705043 0.4390325780
1.0000000000 0.9312008850 0.9164950027
0.9463263905 1.0000000000 0.9531319142
0.9548142214 1.0000000000 0.9604219120
0.9601739528 1.0000000000 0.9650339513
0.9637216754 1.0000000000 0.9671663996
1.0000000000 1.0000000000 0.9216296635
0.4470397498 0.5502327001 1.0000000000
0.4467765316 0.5481460288 1.0000000000
0.4908140688 0.5310559243 1.0000000000
1.0000000000 0.5361409934 0.8736552987
1.0000000000 0.9019760433 0.8915655756
0.4554360266 0.5527504387 1.0000000000
0.4644769970 0.5586785687 1.0000000000
0.5192225528 0.5565384909 1.0000000000
1.0000000000 0.5769893950 0.8823491264
1.0000000000 0.9256809339 0.9176394293
0.4649385824 0.5827992676 1.0000000000
0.4807774472 0.5932173648 1.0000000000
0.5238765545 0.5863584344 1.0000000000
1.0000000000 0.5912718395 0.9069810025
1.0000000000 0.9193865873 0.9128023194
0.0000000000 0.9565499351 0.9318570230
0.0001297017 0.9623369192 0.9375028611
0.1035439078 0.9666132601 0.9421606775
0.9065575647 0.9065423056 0.9065423056
1.0000000000 0.9451018540 0.9388761730
0.9493018997 1.0000000000 0.9577935454
0.9572671092 1.0000000000 0.9643854429
0.9616617075 1.0000000000 0.9680437934
0.9624055848 1.0000000000 0.9676852064
1.0000000000 1.0000000000 0.9264286259
0.9008773938 0.9252918288 1.0000000000
0.9009308003 0.9251926452 1.0000000000
0.8934615091 0.9189822232 1.0000000000
0.9003395132 0.9185702296 1.0000000000
1.0000000000 0.9516136416 0.9859311818
0.9060883497 0.9288700694 1.0000000000
0.9107957580 0.9324025330 1.0000000000
0.9111238270 0.9323109789 1.0000000000
0.9214427405 0.9356527047 1.0000000000
1.0000000000 0.9651941711 0.9906881819
0.9080796521 0.9294041352 1.0000000000
0.9140688182 0.9339627680 1.0000000000
0.9130006867 0.9327153429 1.0000000000
0.9198710613 0.9330930037 1.0000000000
1.0000000000 0.9616006714 0.9920729381
0.9115968566 0.9338635843 1.0000000000
0.9164072633 0.9374265660 1.0000000000
0.9185473411 0.9387426566 1.0000000000
0.9319485771 0.9451094835 1.0000000000
1.0000000000 0.9738002594 0.9957732509
0.9430380713 1.0000000000 1.0000000000
0.9514839399 1.0000000000 1.0000000000
0.9553597314 1.0000000000 1.0000000000
0.9507591363 1.0000000000 1.0000000000
0.9994201572 0.9994201572 0.9994201572
