crates/vr180-gui/assets/insta360_x6_ilog_to_rec709.cube
# Version 2.0
# Create Date 2026.05.20
# Output: Rec709 / BT1886
TITLE "Insta360 I-Log to Rec709 Rendering LUT"
LUT_3D_SIZE 65
0.0005035477 0.0013122759 0.0011749447
0.0005035477 0.0013122759 0.0011749447
0.0005035477 0.0013122759 0.0011749447
0.0005035477 0.0013122759 0.0011749447
0.0005035477 0.0013122759 0.0011749447
0.0005035477 0.0013122759 0.0011749447
0.0030341611 0.0000000000 0.0003290227
0.0104605364 0.0000097753 0.0011654078
0.0174334325 0.0000000000 0.0019703212
0.0242108225 0.0000016690 0.0027375639
0.0308742466 0.0000000000 0.0035028992
0.0376068132 0.0000088216 0.0042706188
0.0451094835 0.0000000000 0.0051289387
0.0533360037 0.0000000000 0.0060640307
0.0626077668 0.0000219348 0.0071302548
0.0729667353 0.0000000000 0.0083168822
0.0842450599 0.0000457771 0.0096131838
0.0969250687 0.0000000000 0.0110825799
0.1131289578 0.0000000000 0.0067149233
0.1319676509 0.0064579042 0.0000138285
0.1513017853 0.0244268330 0.0000305180
0.1725053883 0.0342104887 0.0000011921
0.1962310216 0.0433213169 0.0000071527
0.2219765679 0.0530525196 0.0000238422
0.2502098116 0.0635004196 0.0000267033
0.2800483520 0.0746125639 0.0000000000
0.3121838521 0.0865978103 0.0000829709
0.3461470970 0.0987990673 0.0000963226
0.3819132906 0.1116054398 0.0000610361
0.4193627451 0.1251840620 0.0001099126
0.4575269894 0.1391513123 0.0000772488
0.4971181907 0.1537623026 0.0001180190
0.5373922332 0.1687190051 0.0001525902
0.5784430552 0.1840300031 0.0001454376
0.6199106394 0.1994482910 0.0000033379
0.6611526761 0.2147161345 0.0000340944
0.7031977188 0.2302576867 0.0001068132
0.7449747749 0.2456034943 0.0001988441
0.7863059815 0.2604653048 0.0001735714
0.8281686313 0.2750584134 0.0000214580
0.8691195544 0.2879739834 0.0000801099
0.9375116827 0.2568641756 0.0214839876
0.9905732624 0.2557331006 0.0902647440
1.0000000000 0.2989256695 0.1686517700
1.0000000000 0.3455558099 0.2285467689
1.0000000000 0.3877255474 0.2785584516
1.0000000000 0.4264906157 0.3233534562
1.0000000000 0.4626552129 0.3648348688
1.0000000000 0.4973601892 0.4046463722
1.0000000000 0.5304667830 0.4427693694
1.0000000000 0.5616221294 0.4789721141
1.0000000000 0.5911113813 0.5135354677
1.0000000000 0.6184328985 0.5457179370
1.0000000000 0.6447883288 0.5768930724
1.0000000000 0.6698715381 0.6066367208
1.0000000000 0.6947370680 0.6361731804
1.0000000000 0.7187457084 0.6646887160
1.0000000000 0.7427219234 0.6931312943
1.0000000000 0.7662017433 0.7209835393
1.0000000000 0.7881384947 0.7470085164
1.0000000000 0.8071183337 0.7695277333
1.0000000000 0.8227275978 0.7880564775
1.0000000000 0.8425631342 0.8116121157
1.0000000000 0.8630700675 0.8359652762
1.0000000000 0.8826123445 0.8592050050
0.0005035477 0.0013122759 0.0011749447
0.0005035477 0.0013122759 0.0011749447
0.0005035477 0.0013122759 0.0011749447
0.0005035477 0.0013122759 0.0011749447
0.0005035477 0.0013122759 0.0011749447
0.0005035477 0.0013122759 0.0011749447
0.0030341611 0.0000000000 0.0003290227
0.0104605364 0.0000097753 0.0011654078
0.0174334325 0.0000000000 0.0019703212
0.0242108225 0.0000016690 0.0027375639
0.0308742466 0.0000000000 0.0035028992
0.0376068132 0.0000088216 0.0042706188
0.0451094835 0.0000000000 0.0051289387
0.0533360037 0.0000000000 0.0060640307
0.0626077668 0.0000219348 0.0071302548
0.0729667353 0.0000000000 0.0083168822
0.0842450599 0.0000457771 0.0096131838
0.0969250687 0.0000000000 0.0110825799
0.1131289578 0.0000000000 0.0067149233
0.1319676509 0.0064579042 0.0000138285
0.1513017853 0.0244268330 0.0000305180
0.1725053883 0.0342104887 0.0000011921
0.1962310216 0.0433213169 0.0000071527
0.2219765679 0.0530525196 0.0000238422
0.2502098116 0.0635004196 0.0000267033
0.2800483520 0.0746125639 0.0000000000
0.3121838521 0.0865978103 0.0000829709
0.3461470970 0.0987990673 0.0000963226
0.3819132906 0.1116054398 0.0000610361
0.4193627451 0.1251840620 0.0001099126
0.4575269894 0.1391513123 0.0000772488
0.4971181907 0.1537623026 0.0001180190
0.5373922332 0.1687190051 0.0001525902
0.5784430552 0.1840300031 0.0001454376
0.6199106394 0.1994482910 0.0000033379
0.6611526761 0.2147161345 0.0000340944
0.7031977188 0.2302576867 0.0001068132
0.7449747749 0.2456034943 0.0001988441
0.7863059815 0.2604653048 0.0001735714
0.8281686313 0.2750584134 0.0000214580
0.8691195544 0.2879739834 0.0000801099
0.9375116827 0.2568641756 0.0214839876
0.9905732624 0.2557331006 0.0902647440
1.0000000000 0.2989256695 0.1686517700
1.0000000000 0.3455558099 0.2285467689
1.0000000000 0.3877255474 0.2785584516
1.0000000000 0.4264906157 0.3233534562
1.0000000000 0.4626552129 0.3648348688
1.0000000000 0.4973601892 0.4046463722
1.0000000000 0.5304667830 0.4427693694
1.0000000000 0.5616221294 0.4789721141
1.0000000000 0.5911113813 0.5135354677
1.0000000000 0.6184328985 0.5457179370
1.0000000000 0.6447883288 0.5768930724
1.0000000000 0.6698715381 0.6066367208
1.0000000000 0.6947370680 0.6361731804
1.0000000000 0.7187457084 0.6646887160
1.0000000000 0.7427219234 0.6931312943
1.0000000000 0.7662017433 0.7209835393
1.0000000000 0.7881384947 0.7470085164
1.0000000000 0.8071183337 0.7695277333
1.0000000000 0.8227275978 0.7880564775
1.0000000000 0.8425631342 0.8116121157
1.0000000000 0.8630700675 0.8359652762
1.0000000000 0.8826123445 0.8592050050
0.0005035477 0.0013122759 0.0011749447
0.0005035477 0.0013122759 0.0011749447
0.0005035477 0.0013122759 0.0011749447
0.0005035477 0.0013122759 0.0011749447
0.0005035477 0.0013122759 0.0011749447
0.0005035477 0.0013122759 0.0011749447
0.0030341611 0.0000000000 0.0003290227
0.0104605364 0.0000097753 0.0011654078
0.0174334325 0.0000000000 0.0019703212
0.0242108225 0.0000016690 0.0027375639
0.0308742466 0.0000000000 0.0035028992
0.0376068132 0.0000088216 0.0042706188
0.0451094835 0.0000000000 0.0051289387
0.0533360037 0.0000000000 0.0060640307
0.0626077668 0.0000219348 0.0071302548
0.0729667353 0.0000000000 0.0083168822
0.0842450599 0.0000457771 0.0096131838
0.0969250687 0.0000000000 0.0110825799
0.1131289578 0.0000000000 0.0067149233
0.1319676509 0.0064579042 0.0000138285
0.1513017853 0.0244268330 0.0000305180
0.1725053883 0.0342104887 0.0000011921
0.1962310216 0.0433213169 0.0000071527
0.2219765679 0.0530525196 0.0000238422
0.2502098116 0.0635004196 0.0000267033
0.2800483520 0.0746125639 0.0000000000
0.3121838521 0.0865978103 0.0000829709
0.3461470970 0.0987990673 0.0000963226
0.3819132906 0.1116054398 0.0000610361
0.4193627451 0.1251840620 0.0001099126
0.4575269894 0.1391513123 0.0000772488
0.4971181907 0.1537623026 0.0001180190
0.5373922332 0.1687190051 0.0001525902
0.5784430552 0.1840300031 0.0001454376
0.6199106394 0.1994482910 0.0000033379
0.6611526761 0.2147161345 0.0000340944
0.7031977188 0.2302576867 0.0001068132
0.7449747749 0.2456034943 0.0001988441
0.7863059815 0.2604653048 0.0001735714
0.8281686313 0.2750584134 0.0000214580
0.8691195544 0.2879739834 0.0000801099
0.9375116827 0.2568641756 0.0214839876
0.9905732624 0.2557331006 0.0902647440
1.0000000000 0.2989256695 0.1686517700
1.0000000000 0.3455558099 0.2285467689
1.0000000000 0.3877255474 0.2785584516
1.0000000000 0.4264906157 0.3233534562
1.0000000000 0.4626552129 0.3648348688
1.0000000000 0.4973601892 0.4046463722
1.0000000000 0.5304667830 0.4427693694
1.0000000000 0.5616221294 0.4789721141
1.0000000000 0.5911113813 0.5135354677
1.0000000000 0.6184328985 0.5457179370
1.0000000000 0.6447883288 0.5768930724
1.0000000000 0.6698715381 0.6066367208
1.0000000000 0.6947370680 0.6361731804
1.0000000000 0.7187457084 0.6646887160
1.0000000000 0.7427219234 0.6931312943
1.0000000000 0.7662017433 0.7209835393
1.0000000000 0.7881384947 0.7470085164
1.0000000000 0.8071183337 0.7695277333
1.0000000000 0.8227275978 0.7880564775
1.0000000000 0.8425631342 0.8116121157
1.0000000000 0.8630700675 0.8359652762
1.0000000000 0.8826123445 0.8592050050
0.0005035477 0.0013122759 0.0011749447
0.0005035477 0.0013122759 0.0011749447
0.0005035477 0.0013122759 0.0011749447
0.0005035477 0.0013122759 0.0011749447
0.0005035477 0.0013122759 0.0011749447
0.0005035477 0.0013122759 0.0011749447
0.0030341611 0.0000000000 0.0003290227
0.0104605364 0.0000097753 0.0011654078
0.0174334325 0.0000000000 0.0019703212
0.0242108225 0.0000016690 0.0027375639
0.0308742466 0.0000000000 0.0035028992
0.0376068132 0.0000088216 0.0042706188
0.0451094835 0.0000000000 0.0051289387
0.0533360037 0.0000000000 0.0060640307
0.0626077668 0.0000219348 0.0071302548
0.0729667353 0.0000000000 0.0083168822
0.0842450599 0.0000457771 0.0096131838
0.0969250687 0.0000000000 0.0110825799
0.1131289578 0.0000000000 0.0067149233
0.1319676509 0.0064579042 0.0000138285
0.1513017853 0.0244268330 0.0000305180
0.1725053883 0.0342104887 0.0000011921
0.1962310216 0.0433213169 0.0000071527
0.2219765679 0.0530525196 0.0000238422
0.2502098116 0.0635004196 0.0000267033
0.2800483520 0.0746125639 0.0000000000
0.3121838521 0.0865978103 0.0000829709
0.3461470970 0.0987990673 0.0000963226
0.3819132906 0.1116054398 0.0000610361
0.4193627451 0.1251840620 0.0001099126
0.4575269894 0.1391513123 0.0000772488
0.4971181907 0.1537623026 0.0001180190
0.5373922332 0.1687190051 0.0001525902
0.5784430552 0.1840300031 0.0001454376
0.6199106394 0.1994482910 0.0000033379
0.6611526761 0.2147161345 0.0000340944
0.7031977188 0.2302576867 0.0001068132
0.7449747749 0.2456034943 0.0001988441
0.7863059815 0.2604653048 0.0001735714
0.8281686313 0.2750584134 0.0000214580
0.8691195544 0.2879739834 0.0000801099
0.9375116827 0.2568641756 0.0214839876
0.9905732624 0.2557331006 0.0902647440
1.0000000000 0.2989256695 0.1686517700
1.0000000000 0.3455558099 0.2285467689
1.0000000000 0.3877255474 0.2785584516
1.0000000000 0.4264906157 0.3233534562
1.0000000000 0.4626552129 0.3648348688
1.0000000000 0.4973601892 0.4046463722
1.0000000000 0.5304667830 0.4427693694
1.0000000000 0.5616221294 0.4789721141
1.0000000000 0.5911113813 0.5135354677
1.0000000000 0.6184328985 0.5457179370
1.0000000000 0.6447883288 0.5768930724
1.0000000000 0.6698715381 0.6066367208
1.0000000000 0.6947370680 0.6361731804
1.0000000000 0.7187457084 0.6646887160
1.0000000000 0.7427219234 0.6931312943
1.0000000000 0.7662017433 0.7209835393
1.0000000000 0.7881384947 0.7470085164
1.0000000000 0.8071183337 0.7695277333
1.0000000000 0.8227275978 0.7880564775
1.0000000000 0.8425631342 0.8116121157
1.0000000000 0.8630700675 0.8359652762
1.0000000000 0.8826123445 0.8592050050
0.0005035477 0.0013122759 0.0011749447
0.0005035477 0.0013122759 0.0011749447
0.0005035477 0.0013122759 0.0011749447
0.0005035477 0.0013122759 0.0011749447
0.0005035477 0.0013122759 0.0011749447
0.0005035477 0.0013122759 0.0011749447
0.0030341611 0.0000000000 0.0003290227
0.0104605364 0.0000097753 0.0011654078
0.0174334325 0.0000000000 0.0019703212
0.0242108225 0.0000016690 0.0027375639
0.0308742466 0.0000000000 0.0035028992
0.0376068132 0.0000088216 0.0042706188
0.0451094835 0.0000000000 0.0051289387
0.0533360037 0.0000000000 0.0060640307
0.0626077668 0.0000219348 0.0071302548
0.0729667353 0.0000000000 0.0083168822
0.0842450599 0.0000457771 0.0096131838
0.0969250687 0.0000000000 0.0110825799
0.1131289578 0.0000000000 0.0067149233
0.1319676509 0.0064579042 0.0000138285
0.1513017853 0.0244268330 0.0000305180
0.1725053883 0.0342104887 0.0000011921
0.1962310216 0.0433213169 0.0000071527
0.2219765679 0.0530525196 0.0000238422
0.2502098116 0.0635004196 0.0000267033
0.2800483520 0.0746125639 0.0000000000
0.3121838521 0.0865978103 0.0000829709
0.3461470970 0.0987990673 0.0000963226
0.3819132906 0.1116054398 0.0000610361
0.4193627451 0.1251840620 0.0001099126
0.4575269894 0.1391513123 0.0000772488
0.4971181907 0.1537623026 0.0001180190
0.5373922332 0.1687190051 0.0001525902
0.5784430552 0.1840300031 0.0001454376
0.6199106394 0.1994482910 0.0000033379
0.6611526761 0.2147161345 0.0000340944
0.7031977188 0.2302576867 0.0001068132
0.7449747749 0.2456034943 0.0001988441
0.7863059815 0.2604653048 0.0001735714
0.8281686313 0.2750584134 0.0000214580
0.8691195544 0.2879739834 0.0000801099
0.9375116827 0.2568641756 0.0214839876
0.9905732624 0.2557331006 0.0902647440
1.0000000000 0.2989256695 0.1686517700
1.0000000000 0.3455558099 0.2285467689
1.0000000000 0.3877255474 0.2785584516
1.0000000000 0.4264906157 0.3233534562
1.0000000000 0.4626552129 0.3648348688
1.0000000000 0.4973601892 0.4046463722
1.0000000000 0.5304667830 0.4427693694
1.0000000000 0.5616221294 0.4789721141
1.0000000000 0.5911113813 0.5135354677
1.0000000000 0.6184328985 0.5457179370
1.0000000000 0.6447883288 0.5768930724
1.0000000000 0.6698715381 0.6066367208
1.0000000000 0.6947370680 0.6361731804
1.0000000000 0.7187457084 0.6646887160
1.0000000000 0.7427219234 0.6931312943
1.0000000000 0.7662017433 0.7209835393
1.0000000000 0.7881384947 0.7470085164
1.0000000000 0.8071183337 0.7695277333
1.0000000000 0.8227275978 0.7880564775
1.0000000000 0.8425631342 0.8116121157
1.0000000000 0.8630700675 0.8359652762
1.0000000000 0.8826123445 0.8592050050
0.0005035477 0.0013122759 0.0011749447
0.0005035477 0.0013122759 0.0011749447
0.0005035477 0.0013122759 0.0011749447
0.0005035477 0.0013122759 0.0011749447
0.0005035477 0.0013122759 0.0011749447
0.0005035477 0.0013122759 0.0011749447
0.0030341611 0.0000000000 0.0003290227
0.0104605364 0.0000097753 0.0011654078
0.0174334325 0.0000000000 0.0019703212
0.0242108225 0.0000016690 0.0027375639
0.0308742466 0.0000000000 0.0035028992
0.0376068132 0.0000088216 0.0042706188
0.0451094835 0.0000000000 0.0051289387
0.0533360037 0.0000000000 0.0060640307
0.0626077668 0.0000219348 0.0071302548
0.0729667353 0.0000000000 0.0083168822
0.0842450599 0.0000457771 0.0096131838
0.0969250687 0.0000000000 0.0110825799
0.1131289578 0.0000000000 0.0067149233
0.1319676509 0.0064579042 0.0000138285
0.1513017853 0.0244268330 0.0000305180
0.1725053883 0.0342104887 0.0000011921
0.1962310216 0.0433213169 0.0000071527
0.2219765679 0.0530525196 0.0000238422
0.2502098116 0.0635004196 0.0000267033
0.2800483520 0.0746125639 0.0000000000
0.3121838521 0.0865978103 0.0000829709
0.3461470970 0.0987990673 0.0000963226
0.3819132906 0.1116054398 0.0000610361
0.4193627451 0.1251840620 0.0001099126
0.4575269894 0.1391513123 0.0000772488
0.4971181907 0.1537623026 0.0001180190
0.5373922332 0.1687190051 0.0001525902
0.5784430552 0.1840300031 0.0001454376
0.6199106394 0.1994482910 0.0000033379
0.6611526761 0.2147161345 0.0000340944
0.7031977188 0.2302576867 0.0001068132
0.7449747749 0.2456034943 0.0001988441
0.7863059815 0.2604653048 0.0001735714
0.8281686313 0.2750584134 0.0000214580
0.8691195544 0.2879739834 0.0000801099
0.9375116827 0.2568641756 0.0214839876
0.9905732624 0.2557331006 0.0902647440
1.0000000000 0.2989256695 0.1686517700
1.0000000000 0.3455558099 0.2285467689
1.0000000000 0.3877255474 0.2785584516
1.0000000000 0.4264906157 0.3233534562
1.0000000000 0.4626552129 0.3648348688
1.0000000000 0.4973601892 0.4046463722
1.0000000000 0.5304667830 0.4427693694
1.0000000000 0.5616221294 0.4789721141
1.0000000000 0.5911113813 0.5135354677
1.0000000000 0.6184328985 0.5457179370
1.0000000000 0.6447883288 0.5768930724
1.0000000000 0.6698715381 0.6066367208
1.0000000000 0.6947370680 0.6361731804
1.0000000000 0.7187457084 0.6646887160
1.0000000000 0.7427219234 0.6931312943
1.0000000000 0.7662017433 0.7209835393
1.0000000000 0.7881384947 0.7470085164
1.0000000000 0.8071183337 0.7695277333
1.0000000000 0.8227275978 0.7880564775
1.0000000000 0.8425631342 0.8116121157
1.0000000000 0.8630700675 0.8359652762
1.0000000000 0.8826123445 0.8592050050
0.0000000000 0.0033898871 0.0014844167
0.0000000000 0.0033898871 0.0014844167
0.0000000000 0.0033898871 0.0014844167
0.0000000000 0.0033898871 0.0014844167
0.0000000000 0.0033898871 0.0014844167
0.0000000000 0.0033898871 0.0014844167
0.0046044099 0.0046191920 0.0000000000
0.0120815690 0.0044563497 0.0000000000
0.0186379416 0.0035353246 0.0011501488
0.0252837224 0.0033319505 0.0016081579
0.0317277981 0.0026398108 0.0020022698
0.0384327077 0.0000000000 0.0024817369
0.0455415045 0.0000000000 0.0045986877
0.0534978923 0.0000054837 0.0060854887
0.0627684634 0.0000181201 0.0071517128
0.0730685416 0.0000281338 0.0083235580
0.0845178149 0.0000405318 0.0095230602
0.0976715686 0.0000000000 0.0098802167
0.1142075799 0.0000033379 0.0042820630
0.1325472553 0.0117208362 0.0000207427
0.1516947051 0.0258692874 0.0000348096
0.1730714027 0.0353532464 0.0000236038
0.1966220340 0.0441934653 0.0000119211
0.2225726234 0.0538364519 0.0000636587
0.2507815480 0.0641770619 0.0000243191
0.2806665808 0.0752687018 0.0000309949
0.3129119936 0.0872177081 0.0000729572
0.3467760548 0.0992997539 0.0000820172
0.3827177272 0.1121595331 0.0000906004
0.4201264115 0.1256849870 0.0001192111
0.4584635119 0.1396787022 0.0000543603
0.4981491283 0.1543044747 0.0000364786
0.5381198978 0.1691286145 0.0001640345
0.5795169089 0.1845516709 0.0001411460
0.6207107843 0.1998326276 0.0001764324
0.6623040169 0.2152213512 0.0000588903
0.7043640803 0.2307378691 0.0000033379
0.7460615034 0.2460426680 0.0001924067
0.7875457771 0.2609445335 0.0001068132
0.8290176528 0.2753778992 0.0000886931
0.8707413024 0.2877293622 0.0002446212
0.9392991341 0.2561727512 0.0228959239
0.9915078775 0.2565060655 0.0925087739
1.0000000000 0.3003073262 0.1705558099
1.0000000000 0.3463936255 0.2295529107
1.0000000000 0.3888854715 0.2799002918
1.0000000000 0.4273150797 0.3243042840
1.0000000000 0.4637667372 0.3661154345
1.0000000000 0.4984869726 0.4059266995
1.0000000000 0.5313568132 0.4438091287
1.0000000000 0.5626020447 0.4801251240
1.0000000000 0.5918645571 0.5144204910
1.0000000000 0.6193818189 0.5468447204
1.0000000000 0.6455345903 0.5777869173
1.0000000000 0.6708242733 0.6077706569
1.0000000000 0.6955658236 0.6371535725
1.0000000000 0.7198124094 0.6659471084
1.0000000000 0.7437366484 0.6943431945
1.0000000000 0.7670519570 0.7220001717
1.0000000000 0.7892869745 0.7483749142
1.0000000000 0.8080515183 0.7706425956
1.0000000000 0.8240022030 0.7895671206
1.0000000000 0.8437900549 0.8130664912
1.0000000000 0.8642457275 0.8373652914
1.0000000000 0.8838211452 0.8606317235
0.0000054837 0.0116021019 0.0050767243
0.0000054837 0.0116021019 0.0050767243
0.0000054837 0.0116021019 0.0050767243
0.0000054837 0.0116021019 0.0050767243
0.0000054837 0.0116021019 0.0050767243
0.0000054837 0.0116021019 0.0050767243
0.0029569123 0.0127875372 0.0025241760
0.0159378099 0.0158419642 0.0000097753
0.0237020294 0.0167184043 0.0000133516
0.0305714504 0.0175352388 0.0000097753
0.0370355535 0.0179827573 0.0000152590
0.0437466621 0.0182614729 0.0000152590
0.0510440509 0.0182724403 0.0000097753
0.0591062982 0.0179577230 0.0000061990
0.0682118811 0.0175264172 0.0000097753
0.0784959850 0.0167334249 0.0000207427
0.0900623236 0.0165009632 0.0000097753
0.1030858988 0.0182490749 0.0000150206
0.1177798600 0.0215803101 0.0000128748
0.1346351186 0.0267831598 0.0000250343
0.1532935645 0.0332758736 0.0000314717
0.1744006065 0.0404497597 0.0000195506
0.1976853971 0.0478134298 0.0000514992
0.2235437171 0.0564185645 0.0000567445
0.2516973278 0.0661335546 0.0000476844
0.2816388666 0.0768108167 0.0000741493
0.3138604372 0.0883919375 0.0000693809
0.3477140078 0.1002055200 0.0000491150
0.3837453269 0.1129563401 0.0000562676
0.4211990730 0.1263935779 0.0000998989
0.4597602903 0.1404082742 0.0001244564
0.4993116751 0.1549260414 0.0001442454
0.5395392252 0.1697961967 0.0001580739
0.5809002346 0.1851851587 0.0001776246
0.6224186027 0.2005502785 0.0002217327
0.6642156863 0.2159902628 0.0001935988
0.7062180514 0.2314824617 0.0001194495
0.7482862211 0.2468873980 0.0001132506
0.7897194724 0.2617401484 0.0001490139
0.8312995918 0.2761563478 0.0002160105
0.8739158942 0.2875491150 0.0000514992
0.9429093233 0.2548759728 0.0255009251
0.9938887617 0.2584644656 0.0982182708
1.0000000000 0.3036023213 0.1751380465
1.0000000000 0.3496006428 0.2334859236
1.0000000000 0.3920335985 0.2835941672
1.0000000000 0.4301360914 0.3275620851
1.0000000000 0.4667098211 0.3695005531
1.0000000000 0.5010843442 0.4089138914
1.0000000000 0.5340772107 0.4469570172
1.0000000000 0.5649571794 0.4828786622
1.0000000000 0.5941009575 0.5170347906
1.0000000000 0.6217393378 0.5496287766
1.0000000000 0.6479014076 0.5805881399
1.0000000000 0.6733086328 0.6107146944
1.0000000000 0.6981541352 0.6402277886
1.0000000000 0.7223764019 0.6689879454
1.0000000000 0.7463025483 0.6973761635
1.0000000000 0.7696457523 0.7250872625
1.0000000000 0.7919284543 0.7515149348
1.0000000000 0.8104815175 0.7735215438
1.0000000000 0.8266334306 0.7926964122
1.0000000000 0.8464429789 0.8162172408
1.0000000000 0.8669246395 0.8405465591
1.0000000000 0.8862661650 0.8635438125
0.0000000000 0.0194552529 0.0085107195
0.0000000000 0.0194552529 0.0085107195
0.0000000000 0.0194552529 0.0085107195
0.0000000000 0.0194552529 0.0085107195
0.0000000000 0.0194552529 0.0085107195
0.0000000000 0.0194552529 0.0085107195
0.0000090600 0.0204036965 0.0064402609
0.0161252098 0.0239750229 0.0000116827
0.0265335317 0.0263694972 0.0000019074
0.0343969348 0.0274388209 0.0000152590
0.0413009270 0.0283202678 0.0000152590
0.0486719883 0.0290894179 0.0000019074
0.0560521096 0.0299353399 0.0000152590
0.0640421149 0.0311131456 0.0000267033
0.0732061112 0.0320339322 0.0000109674
0.0834644656 0.0328729400 0.0000226501
0.0949073014 0.0339246204 0.0000286107
0.1074218452 0.0351203079 0.0000305180
0.1218332761 0.0376196880 0.0000252728
0.1380381189 0.0405603876 0.0000350481
0.1562895781 0.0447270542 0.0000495918
0.1769324121 0.0498736362 0.0000436313
0.1998426413 0.0555929084 0.0000438697
0.2254363127 0.0627925441 0.0000295644
0.2532654307 0.0711718929 0.0000324254
0.2832830262 0.0808425364 0.0000612745
0.3153901541 0.0913605325 0.0000910773
0.3492167830 0.1025790131 0.0000576982
0.3851939803 0.1149061570 0.0000419623
0.4226210231 0.1279933909 0.0000205043
0.4614595254 0.1418822004 0.0001091974
0.5011835279 0.1562833791 0.0001578355
0.5415655756 0.1710650797 0.0000247959
0.5829408904 0.1863229095 0.0000247959
0.6245369841 0.2016169795 0.0002045663
0.6666204128 0.2170965419 0.0000650893
0.7084019989 0.2324473564 0.0001401923
0.7508611810 0.2479402705 0.0000617514
0.7919561112 0.2626111048 0.0001525902
0.8339584764 0.2771071756 0.0002353227
0.8775597009 0.2870775158 0.0000286107
0.9476665618 0.2533548390 0.0282401579
0.9963960098 0.2610170138 0.1046988251
1.0000000000 0.3071121347 0.1799496452
1.0000000000 0.3531481270 0.2377946899
1.0000000000 0.3949318589 0.2869780938
1.0000000000 0.4332503624 0.3311365110
1.0000000000 0.4695916304 0.3728098535
1.0000000000 0.5037823301 0.4120222019
1.0000000000 0.5368469615 0.4501628424
1.0000000000 0.5674372473 0.4857785916
1.0000000000 0.5965986687 0.5199776360
1.0000000000 0.6243228809 0.5526827268
1.0000000000 0.6504329747 0.5835829614
1.0000000000 0.6758902686 0.6137912947
1.0000000000 0.7005672065 0.6430924315
1.0000000000 0.7250038148 0.6721122301
1.0000000000 0.7487833314 0.7003354601
1.0000000000 0.7722447929 0.7281571870
1.0000000000 0.7946231022 0.7547112230
1.0000000000 0.8130588617 0.7765754940
1.0000000000 0.8292110132 0.7957548924
1.0000000000 0.8489409285 0.8191858358
1.0000000000 0.8694986458 0.8436095693
1.0000000000 0.8885137713 0.8662260624
0.0000152590 0.0270315957 0.0118164435
0.0000152590 0.0270315957 0.0118164435
0.0000152590 0.0270315957 0.0118164435
0.0000152590 0.0270315957 0.0118164435
0.0000152590 0.0270315957 0.0118164435
0.0000152590 0.0270315957 0.0118164435
0.0000000000 0.0277327955 0.0108808747
0.0141973278 0.0317874037 0.0000152590
0.0274400130 0.0344012264 0.0000019074
0.0367000935 0.0364967193 0.0000152590
0.0445284485 0.0376165885 0.0000152590
0.0520125219 0.0386570630 0.0000233654
0.0607483120 0.0394114309 0.0000247959
0.0700908865 0.0402707046 0.0000152590
0.0794778077 0.0411986439 0.0000305180
0.0895706970 0.0426532578 0.0000135901
0.0997503719 0.0448698692 0.0000245575
0.1119289788 0.0468392367 0.0000038148
0.1260910201 0.0489559491 0.0000305180
0.1418824388 0.0519007019 0.0000133516
0.1598439765 0.0555700198 0.0000209812
0.1798855097 0.0597378786 0.0000677119
0.2026657988 0.0647278172 0.0000054837
0.2278198196 0.0707398718 0.0000634203
0.2554057469 0.0779538128 0.0000605592
0.2852626459 0.0864206626 0.0000679503
0.3168962673 0.0956759747 0.0000741493
